;FLAVOR:Marlin
;TIME:849
;Filament used: 0.659701m
;Layer height: 0.2
;MINX:55.123
;MINY:99.801
;MINZ:0.2
;MAXX:130.073
;MAXY:137.086
;MAXZ:5
;Generated with Cura_SteamEngine 4.12.1
M140 S50
M105
M190 S50
M104 S200
M105
M109 S200
M82 ;absolute extrusion mode
M201 X500.00 Y500.00 Z100.00 E5000.00 ;Setup machine max acceleration
M203 X500.00 Y500.00 Z10.00 E50.00 ;Setup machine max feedrate
M204 P500.00 R1000.00 T500.00 ;Setup Print/Retract/Travel acceleration
M205 X8.00 Y8.00 Z0.40 E5.00 ;Setup Jerk
M220 S100 ;Reset Feedrate
M221 S100 ;Reset Flowrate

G28 ;Home

G92 E0 ;Reset Extruder
G1 Z2.0 F3000 ;Move Z Axis up
G1 X10.1 Y20 Z0.28 F5000.0 ;Move to start position
G1 X10.1 Y200.0 Z0.28 F1500.0 E15 ;Draw the first line
G1 X10.4 Y200.0 Z0.28 F5000.0 ;Move to side a little
G1 X10.4 Y20 Z0.28 F1500.0 E30 ;Draw the second line
G92 E0 ;Reset Extruder
G1 Z2.0 F3000 ;Move Z Axis up

G92 E0
G92 E0
G1 F2700 E-5
;LAYER_COUNT:25
;LAYER:0
M107
G0 F6000 X63.86 Y103.673 Z0.2
;TYPE:SKIRT
G1 F2700 E0
G1 F1200 X64.116 Y103.524 E0.00985
G1 X64.529 Y103.295 E0.02556
G1 X65.069 Y103.011 E0.04585
G1 X65.961 Y102.592 E0.07863
G1 X66.23 Y102.48 E0.08832
G1 X66.664 Y102.31 E0.10382
G1 X67.23 Y102.102 E0.12388
G1 X68.139 Y101.812 E0.15561
G1 X68.426 Y101.734 E0.16551
G1 X68.887 Y101.62 E0.1813
G1 X69.511 Y101.479 E0.20258
G1 X70.503 Y101.302 E0.23609
G1 X70.8 Y101.263 E0.24606
G1 X71.228 Y101.215 E0.26038
G1 X71.828 Y101.16 E0.28042
G1 X72.75 Y101.114 E0.31113
G1 X73.018 Y101.112 E0.32004
G1 X73.514 Y101.12 E0.33654
G1 X74.151 Y101.144 E0.35774
G1 X75.166 Y101.229 E0.39162
G1 X75.627 Y101.291 E0.40709
G1 X75.987 Y101.344 E0.41919
G1 X78.528 Y101.683 E0.50445
G1 X81.048 Y101.947 E0.58873
G1 X83.561 Y102.139 E0.67255
G1 X86.046 Y102.258 E0.7553
G1 X88.576 Y102.308 E0.83947
G1 X91.13 Y102.285 E0.92442
G1 X93.614 Y102.193 E1.00709
G1 X96.111 Y102.029 E1.09032
G1 X98.647 Y101.791 E1.17504
G1 X101.127 Y101.488 E1.25814
G1 X103.602 Y101.113 E1.34139
G1 X106.142 Y100.655 E1.42724
G1 X107.536 Y100.372 E1.47455
G1 X108.73 Y100.12 E1.51514
G1 X109.637 Y99.968 E1.54572
G1 X109.853 Y99.941 E1.55296
G1 X110.263 Y99.897 E1.56668
G1 X111.069 Y99.833 E1.59357
G1 X112.031 Y99.801 E1.62558
G1 X112.323 Y99.804 E1.6353
G1 X112.785 Y99.818 E1.65067
G1 X113.377 Y99.849 E1.67039
G1 X114.323 Y99.94 E1.702
G1 X114.631 Y99.983 E1.71234
G1 X115.132 Y100.064 E1.72922
G1 X115.747 Y100.179 E1.75003
G1 X116.641 Y100.385 E1.78054
G1 X116.852 Y100.443 E1.78782
G1 X117.303 Y100.578 E1.80348
G1 X117.922 Y100.777 E1.8251
G1 X118.783 Y101.094 E1.85562
G1 X119.064 Y101.211 E1.86574
G1 X119.535 Y101.42 E1.88288
G1 X120.098 Y101.686 E1.90359
G1 X120.948 Y102.134 E1.93555
G1 X121.215 Y102.29 E1.94584
G1 X121.629 Y102.544 E1.96199
G1 X122.139 Y102.873 E1.98218
G1 X122.924 Y103.43 E2.01419
G1 X123.13 Y103.59 E2.02287
G1 X123.505 Y103.894 E2.03892
G1 X124.004 Y104.318 E2.0607
G1 X124.696 Y104.96 E2.0921
G1 X124.906 Y105.172 E2.10202
G1 X125.236 Y105.52 E2.11797
G1 X125.639 Y105.964 E2.13792
G1 X126.245 Y106.692 E2.16942
G1 X126.424 Y106.927 E2.17925
G1 X126.713 Y107.324 E2.19558
G1 X127.077 Y107.849 E2.21683
G1 X127.59 Y108.664 E2.24886
G1 X127.723 Y108.897 E2.25778
G1 X127.952 Y109.32 E2.27378
G1 X128.241 Y109.882 E2.2948
G1 X128.654 Y110.782 E2.32773
G1 X128.765 Y111.056 E2.33757
G1 X128.921 Y111.463 E2.35206
G1 X129.126 Y112.033 E2.37221
G1 X129.413 Y112.958 E2.40442
G1 X129.494 Y113.266 E2.41502
G1 X129.597 Y113.69 E2.42953
G1 X129.723 Y114.26 E2.44894
G1 X129.898 Y115.274 E2.48317
G1 X129.939 Y115.603 E2.4942
G1 X129.983 Y116.026 E2.50834
G1 X130.033 Y116.611 E2.52787
G1 X130.073 Y117.548 E2.55906
G1 X130.073 Y117.795 E2.56728
G1 X130.063 Y118.272 E2.58315
G1 X130.034 Y118.94 E2.60538
G1 X129.952 Y119.879 E2.63673
G1 X129.915 Y120.164 E2.64629
G1 X129.839 Y120.662 E2.66305
G1 X129.73 Y121.279 E2.68389
G1 X129.509 Y122.266 E2.71753
G1 X129.436 Y122.533 E2.72673
G1 X129.315 Y122.943 E2.74095
G1 X129.125 Y123.545 E2.76195
G1 X128.801 Y124.435 E2.79345
G1 X128.689 Y124.706 E2.8032
G1 X128.492 Y125.154 E2.81948
G1 X128.229 Y125.718 E2.84018
G1 X127.787 Y126.568 E2.87204
G1 X127.66 Y126.788 E2.88049
G1 X127.421 Y127.183 E2.89585
G1 X127.072 Y127.733 E2.91751
G1 X126.507 Y128.54 E2.95028
G1 X126.338 Y128.76 E2.95951
G1 X126.05 Y129.12 E2.97484
G1 X125.639 Y129.611 E2.99614
G1 X125.047 Y130.263 E3.02543
G1 X124.868 Y130.445 E3.03392
G1 X124.457 Y130.841 E3.0529
G1 X123.99 Y131.269 E3.07397
G1 X123.299 Y131.852 E3.10404
G1 X123.054 Y132.042 E3.11435
G1 X122.646 Y132.344 E3.13123
G1 X122.139 Y132.701 E3.15186
G1 X121.283 Y133.246 E3.18561
G1 X121.02 Y133.397 E3.1957
G1 X120.632 Y133.61 E3.21042
G1 X120.107 Y133.884 E3.23012
G1 X119.383 Y134.229 E3.25679
G1 X119.117 Y134.344 E3.26643
G1 X118.513 Y134.584 E3.28805
G1 X117.911 Y134.803 E3.30935
G1 X117.051 Y135.077 E3.33937
G1 X116.784 Y135.15 E3.34858
G1 X116.306 Y135.269 E3.36496
G1 X115.695 Y135.407 E3.3858
G1 X114.769 Y135.575 E3.4171
G1 X114.485 Y135.614 E3.42663
G1 X113.996 Y135.67 E3.443
G1 X113.409 Y135.724 E3.46261
G1 X112.91 Y135.758 E3.47924
G1 X112.443 Y135.772 E3.49478
G1 X112.174 Y135.774 E3.50373
G1 X111.661 Y135.766 E3.5208
G1 X111.024 Y135.741 E3.542
G1 X110.081 Y135.663 E3.57347
G1 X109.787 Y135.626 E3.58333
G1 X109.2 Y135.542 E3.60305
G1 X106.61 Y135.197 E3.68995
G1 X104.104 Y134.936 E3.77375
G1 X101.599 Y134.747 E3.85731
G1 X99.065 Y134.627 E3.94168
G1 X96.578 Y134.579 E4.02442
G1 X94.027 Y134.603 E4.10927
G1 X91.529 Y134.697 E4.19241
G1 X89.016 Y134.863 E4.27617
G1 X86.529 Y135.098 E4.35926
G1 X84 Y135.409 E4.44401
G1 X81.544 Y135.782 E4.52663
G1 X79.004 Y136.241 E4.61248
G1 X77.716 Y136.504 E4.6562
G1 X76.456 Y136.769 E4.69903
G1 X75.436 Y136.933 E4.73339
G1 X75.111 Y136.97 E4.74427
G1 X74.705 Y137.009 E4.75783
G1 X74.116 Y137.054 E4.77748
G1 X73.202 Y137.086 E4.8079
G1 X72.914 Y137.084 E4.81748
G1 X72.394 Y137.068 E4.83478
G1 X71.804 Y137.036 E4.85444
G1 X70.908 Y136.95 E4.88437
G1 X70.594 Y136.907 E4.89491
G1 X70.064 Y136.822 E4.91277
G1 X69.449 Y136.707 E4.93358
G1 X68.508 Y136.487 E4.96572
G1 X68.247 Y136.414 E4.97473
G1 X67.834 Y136.29 E4.98908
G1 X67.251 Y136.102 E5.00945
G1 X66.358 Y135.771 E5.04113
G1 X66.073 Y135.651 E5.05141
G1 X65.635 Y135.455 E5.06737
G1 X65.09 Y135.197 E5.08743
G1 X64.254 Y134.757 E5.11885
G1 X64.002 Y134.61 E5.12855
G1 X63.564 Y134.34 E5.14566
G1 X63.033 Y133.996 E5.16671
G1 X62.261 Y133.447 E5.19821
G1 X62.036 Y133.272 E5.2077
G1 X61.664 Y132.97 E5.22363
G1 X61.197 Y132.573 E5.24402
G1 X60.509 Y131.935 E5.27523
G1 X60.29 Y131.714 E5.28557
G1 X59.94 Y131.345 E5.30249
G1 X59.538 Y130.9 E5.32244
G1 X58.95 Y130.19 E5.3531
G1 X58.768 Y129.951 E5.36309
G1 X58.464 Y129.533 E5.38028
G1 X58.106 Y129.014 E5.40125
G1 X57.608 Y128.221 E5.4324
G1 X57.475 Y127.988 E5.44132
G1 X57.245 Y127.565 E5.45733
G1 X56.955 Y127.001 E5.47843
G1 X56.555 Y126.132 E5.51024
G1 X56.432 Y125.831 E5.52106
G1 X56.268 Y125.405 E5.53624
G1 X56.072 Y124.862 E5.55544
G1 X55.767 Y123.873 E5.58987
G1 X55.684 Y123.551 E5.60092
G1 X55.587 Y123.142 E5.61491
G1 X55.462 Y122.567 E5.63448
G1 X55.295 Y121.586 E5.66757
G1 X55.257 Y121.28 E5.67783
G1 X55.212 Y120.854 E5.69208
G1 X55.162 Y120.265 E5.71174
G1 X55.123 Y119.299 E5.74389
G1 X55.124 Y118.992 E5.7541
G1 X55.136 Y118.506 E5.77027
G1 X55.165 Y117.895 E5.79062
G1 X55.251 Y116.951 E5.82215
G1 X55.29 Y116.661 E5.83188
G1 X55.361 Y116.205 E5.84723
G1 X55.468 Y115.602 E5.8676
G1 X55.68 Y114.656 E5.89984
G1 X55.764 Y114.345 E5.91056
G1 X55.901 Y113.877 E5.92678
G1 X56.084 Y113.302 E5.94685
G1 X56.411 Y112.41 E5.97844
G1 X56.523 Y112.141 E5.98814
G1 X56.723 Y111.69 E6.00454
G1 X56.989 Y111.124 E6.02535
G1 X57.444 Y110.258 E6.05788
G1 X57.58 Y110.025 E6.06686
G1 X57.806 Y109.654 E6.0813
G1 X58.139 Y109.132 E6.1019
G1 X58.687 Y108.35 E6.13366
G1 X58.862 Y108.122 E6.14322
G1 X59.152 Y107.761 E6.15862
G1 X59.557 Y107.277 E6.17961
G1 X60.234 Y106.538 E6.21294
G1 X60.433 Y106.34 E6.22228
G1 X60.723 Y106.063 E6.23562
G1 X61.176 Y105.644 E6.25614
G1 X61.905 Y105.026 E6.28793
G1 X62.083 Y104.888 E6.29542
G1 X62.393 Y104.656 E6.3083
G1 X62.596 Y104.51 E6.31661
G1 X63.091 Y104.164 E6.3367
G1 X63.86 Y103.673 E6.36705
G0 F6000 X64.061 Y104.019
G1 F1200 X64.317 Y103.87 E6.3769
G1 X64.715 Y103.649 E6.39204
G1 X65.255 Y103.365 E6.41233
G1 X66.115 Y102.961 E6.44394
G1 X66.384 Y102.849 E6.45363
G1 X66.802 Y102.686 E6.46855
G1 X67.368 Y102.478 E6.48861
G1 X68.244 Y102.198 E6.51919
G1 X68.531 Y102.12 E6.52909
G1 X68.975 Y102.01 E6.5443
G1 X69.599 Y101.869 E6.56558
G1 X70.555 Y101.698 E6.59788
G1 X70.852 Y101.659 E6.60784
G1 X71.264 Y101.613 E6.62163
G1 X71.864 Y101.558 E6.64167
G1 X72.753 Y101.514 E6.67128
G1 X73.021 Y101.512 E6.68019
G1 X73.499 Y101.52 E6.69609
G1 X74.136 Y101.544 E6.71729
G1 X75.114 Y101.626 E6.74993
G1 X75.569 Y101.687 E6.7652
G1 X75.88 Y101.733 E6.77566
G1 X78.501 Y102.083 E6.86361
G1 X81.013 Y102.346 E6.94761
G1 X83.513 Y102.536 E7.031
G1 X86.055 Y102.658 E7.11565
G1 X88.571 Y102.708 E7.19935
G1 X91.113 Y102.685 E7.2839
G1 X93.658 Y102.591 E7.3686
G1 X96.14 Y102.428 E7.45133
G1 X98.698 Y102.188 E7.53679
G1 X101.164 Y101.886 E7.61942
G1 X103.696 Y101.503 E7.70459
G1 X106.206 Y101.05 E7.78942
G1 X107.558 Y100.776 E7.8353
G1 X108.813 Y100.511 E7.87797
G1 X109.686 Y100.365 E7.90741
G1 X109.902 Y100.338 E7.91465
G1 X110.301 Y100.295 E7.92799
G1 X111.1 Y100.232 E7.95465
G1 X112.027 Y100.201 E7.9855
G1 X112.319 Y100.204 E7.99521
G1 X112.764 Y100.218 E8.01002
G1 X113.356 Y100.249 E8.02974
G1 X114.268 Y100.336 E8.06021
G1 X114.576 Y100.379 E8.07055
G1 X115.058 Y100.458 E8.0868
G1 X115.673 Y100.573 E8.10761
G1 X116.535 Y100.771 E8.13702
G1 X116.746 Y100.829 E8.1443
G1 X117.18 Y100.959 E8.15937
G1 X117.799 Y101.158 E8.181
G1 X118.629 Y101.463 E8.21041
G1 X118.91 Y101.58 E8.22053
G1 X119.364 Y101.782 E8.23706
G1 X119.927 Y102.048 E8.25777
G1 X120.746 Y102.48 E8.28857
G1 X121.013 Y102.636 E8.29885
G1 X121.412 Y102.881 E8.31442
G1 X121.922 Y103.21 E8.33461
G1 X122.678 Y103.745 E8.36541
G1 X122.884 Y103.905 E8.37409
G1 X123.246 Y104.199 E8.3896
G1 X123.745 Y104.623 E8.41138
G1 X124.412 Y105.241 E8.44162
G1 X124.622 Y105.453 E8.45155
G1 X124.94 Y105.789 E8.46693
G1 X125.343 Y106.233 E8.48688
G1 X125.926 Y106.934 E8.5172
G1 X126.105 Y107.169 E8.52703
G1 X126.384 Y107.552 E8.54279
G1 X126.748 Y108.077 E8.56404
G1 X127.243 Y108.862 E8.5949
G1 X127.376 Y109.095 E8.60383
G1 X127.597 Y109.502 E8.61923
G1 X127.886 Y110.064 E8.64025
G1 X128.283 Y110.932 E8.67199
G1 X128.394 Y111.206 E8.68183
G1 X128.545 Y111.599 E8.69583
G1 X128.75 Y112.169 E8.71598
G1 X129.026 Y113.06 E8.747
G1 X129.107 Y113.368 E8.75759
G1 X129.206 Y113.776 E8.77156
G1 X129.332 Y114.346 E8.79097
G1 X129.501 Y115.323 E8.82395
G1 X129.542 Y115.652 E8.83498
G1 X129.584 Y116.06 E8.84862
G1 X129.634 Y116.645 E8.86815
G1 X129.673 Y117.548 E8.89821
G1 X129.673 Y117.795 E8.90643
G1 X129.663 Y118.255 E8.92173
G1 X129.634 Y118.923 E8.94397
G1 X129.556 Y119.828 E8.97418
G1 X129.519 Y120.113 E8.98374
G1 X129.445 Y120.592 E8.99986
G1 X129.336 Y121.209 E9.0207
G1 X129.123 Y122.161 E9.05314
G1 X129.05 Y122.428 E9.06235
G1 X128.933 Y122.822 E9.07602
G1 X128.743 Y123.424 E9.09702
G1 X128.431 Y124.283 E9.12741
G1 X128.319 Y124.554 E9.13717
G1 X128.13 Y124.985 E9.15282
G1 X127.867 Y125.549 E9.17352
G1 X127.44 Y126.368 E9.20424
G1 X127.313 Y126.588 E9.21269
G1 X127.083 Y126.968 E9.22746
G1 X126.734 Y127.518 E9.24913
G1 X126.19 Y128.296 E9.2807
G1 X126.021 Y128.516 E9.28993
G1 X125.743 Y128.863 E9.30472
G1 X125.332 Y129.354 E9.32601
G1 X124.761 Y129.983 E9.35427
G1 X124.582 Y130.165 E9.36276
G1 X124.187 Y130.547 E9.38103
G1 X123.72 Y130.975 E9.4021
G1 X123.054 Y131.536 E9.43107
G1 X122.809 Y131.726 E9.44138
G1 X122.416 Y132.017 E9.45764
G1 X121.909 Y132.374 E9.47827
G1 X121.084 Y132.9 E9.51081
G1 X120.821 Y133.051 E9.5209
G1 X120.447 Y133.255 E9.53506
G1 X119.922 Y133.529 E9.55476
G1 X119.224 Y133.862 E9.58048
G1 X118.958 Y133.977 E9.59012
G1 X118.376 Y134.208 E9.61095
G1 X117.774 Y134.427 E9.63225
G1 X116.946 Y134.691 E9.66116
G1 X116.679 Y134.764 E9.67037
G1 X116.218 Y134.879 E9.68617
G1 X115.607 Y135.017 E9.707
G1 X114.714 Y135.178 E9.73718
G1 X114.43 Y135.217 E9.74672
G1 X113.959 Y135.271 E9.76249
G1 X113.372 Y135.325 E9.78209
G1 X112.89 Y135.359 E9.79816
G1 X112.44 Y135.372 E9.81314
G1 X112.171 Y135.374 E9.82208
G1 X111.676 Y135.366 E9.83855
G1 X111.039 Y135.341 E9.85975
G1 X110.131 Y135.266 E9.89006
G1 X109.837 Y135.229 E9.89991
G1 X109.234 Y135.142 E9.92018
G1 X106.668 Y134.801 E10.00627
G1 X104.143 Y134.538 E10.09071
G1 X101.612 Y134.347 E10.17513
G1 X99.092 Y134.227 E10.25904
G1 X96.582 Y134.179 E10.34254
G1 X94.008 Y134.203 E10.42815
G1 X91.524 Y134.297 E10.51083
G1 X88.989 Y134.464 E10.59533
G1 X86.475 Y134.701 E10.67931
G1 X83.963 Y135.01 E10.76349
G1 X81.449 Y135.392 E10.84807
G1 X78.94 Y135.846 E10.93287
G1 X77.611 Y136.117 E10.97799
G1 X76.374 Y136.377 E11.02003
G1 X75.391 Y136.536 E11.05315
G1 X75.066 Y136.573 E11.06403
G1 X74.674 Y136.61 E11.07712
G1 X74.085 Y136.655 E11.09677
G1 X73.204 Y136.686 E11.12609
G1 X72.916 Y136.684 E11.13567
G1 X72.416 Y136.668 E11.15231
G1 X71.826 Y136.636 E11.17196
G1 X70.962 Y136.554 E11.20083
G1 X70.648 Y136.511 E11.21137
G1 X70.138 Y136.428 E11.22855
G1 X69.523 Y136.313 E11.24936
G1 X68.616 Y136.102 E11.28033
G1 X68.355 Y136.029 E11.28935
G1 X67.957 Y135.909 E11.30317
G1 X67.374 Y135.721 E11.32355
G1 X66.514 Y135.402 E11.35406
G1 X66.229 Y135.282 E11.36434
G1 X65.807 Y135.094 E11.37971
G1 X65.262 Y134.836 E11.39976
G1 X64.456 Y134.411 E11.43007
G1 X64.204 Y134.264 E11.43977
G1 X63.782 Y134.004 E11.45626
G1 X63.251 Y133.66 E11.4773
G1 X62.506 Y133.131 E11.50769
G1 X62.281 Y132.956 E11.51717
G1 X61.923 Y132.665 E11.53252
G1 X61.456 Y132.268 E11.5529
G1 X60.793 Y131.653 E11.58298
G1 X60.574 Y131.432 E11.59333
G1 X60.237 Y131.077 E11.60961
G1 X59.835 Y130.632 E11.62956
G1 X59.268 Y129.948 E11.65911
G1 X59.086 Y129.709 E11.6691
G1 X58.793 Y129.306 E11.68567
G1 X58.435 Y128.787 E11.70664
G1 X57.955 Y128.023 E11.73665
G1 X57.822 Y127.79 E11.74557
G1 X57.601 Y127.382 E11.76101
G1 X57.311 Y126.818 E11.7821
G1 X56.926 Y125.981 E11.81274
G1 X56.803 Y125.68 E11.82356
G1 X56.645 Y125.269 E11.8382
G1 X56.449 Y124.726 E11.8574
G1 X56.155 Y123.773 E11.89057
G1 X56.072 Y123.451 E11.90163
G1 X55.978 Y123.057 E11.91511
G1 X55.853 Y122.482 E11.93468
G1 X55.692 Y121.536 E11.96659
G1 X55.654 Y121.23 E11.97685
G1 X55.611 Y120.821 E11.99053
G1 X55.561 Y120.232 E12.01019
G1 X55.523 Y119.3 E12.04121
G1 X55.524 Y118.993 E12.05142
G1 X55.536 Y118.525 E12.06699
G1 X55.565 Y117.914 E12.08734
G1 X55.648 Y117.004 E12.11773
G1 X55.687 Y116.714 E12.12746
G1 X55.755 Y116.275 E12.14224
G1 X55.862 Y115.672 E12.16261
G1 X56.066 Y114.76 E12.19369
G1 X56.15 Y114.449 E12.20441
G1 X56.282 Y113.998 E12.22003
G1 X56.465 Y113.423 E12.2401
G1 X56.78 Y112.564 E12.27054
G1 X56.892 Y112.295 E12.28023
G1 X57.085 Y111.86 E12.29606
G1 X57.351 Y111.294 E12.31686
G1 X57.789 Y110.46 E12.34819
G1 X57.925 Y110.227 E12.35716
G1 X58.144 Y109.869 E12.37112
G1 X58.477 Y109.347 E12.39171
G1 X59.004 Y108.594 E12.42228
G1 X59.179 Y108.366 E12.43184
G1 X59.459 Y108.018 E12.4467
G1 X59.864 Y107.534 E12.46769
G1 X60.517 Y106.822 E12.49982
G1 X60.716 Y106.624 E12.50916
G1 X60.994 Y106.356 E12.522
G1 X61.447 Y105.937 E12.54252
G1 X62.15 Y105.342 E12.57316
G1 X62.328 Y105.204 E12.58065
G1 X62.63 Y104.978 E12.59319
G1 X62.825 Y104.838 E12.60118
G1 X63.32 Y104.492 E12.62126
G1 X64.061 Y104.019 E12.6505
G0 F6000 X64.262 Y104.364
G1 F1200 X64.518 Y104.215 E12.66036
G1 X64.901 Y104.003 E12.67492
G1 X65.441 Y103.719 E12.69521
