;FLAVOR:Marlin
;TIME:7715
;Filament used: 5.51738m
;Layer height: 0.2
;MINX:66.845
;MINY:71.252
;MINZ:0.2
;MAXX:160.865
;MAXY:145.435
;MAXZ:63
;Generated with Cura_SteamEngine 4.12.1
M140 S50
M105
M190 S50
M104 S200
M105
M109 S200
M82 ;absolute extrusion mode
M201 X500.00 Y500.00 Z100.00 E5000.00 ;Setup machine max acceleration
M203 X500.00 Y500.00 Z10.00 E50.00 ;Setup machine max feedrate
M204 P500.00 R1000.00 T500.00 ;Setup Print/Retract/Travel acceleration
M205 X8.00 Y8.00 Z0.40 E5.00 ;Setup Jerk
M220 S100 ;Reset Feedrate
M221 S100 ;Reset Flowrate

G28 ;Home

G92 E0 ;Reset Extruder
G1 Z2.0 F3000 ;Move Z Axis up
G1 X10.1 Y20 Z0.28 F5000.0 ;Move to start position
G1 X10.1 Y200.0 Z0.28 F1500.0 E15 ;Draw the first line
G1 X10.4 Y200.0 Z0.28 F5000.0 ;Move to side a little
G1 X10.4 Y20 Z0.28 F1500.0 E30 ;Draw the second line
G92 E0 ;Reset Extruder
G1 Z2.0 F3000 ;Move Z Axis up

G92 E0
G92 E0
G1 F2700 E-5
;LAYER_COUNT:315
;LAYER:0
M107
G0 F6000 X72.597 Y74.101 Z0.2
;TYPE:SKIRT
G1 F2700 E0
G1 F1200 X73.318 Y73.501 E0.0312
G1 X74.087 Y72.965 E0.06237
G1 X74.9 Y72.496 E0.09359
G1 X75.749 Y72.098 E0.12478
G1 X76.629 Y71.774 E0.15597
G1 X77.534 Y71.526 E0.18718
G1 X78.456 Y71.356 E0.21836
G1 X79.389 Y71.265 E0.24954
G1 X80.231 Y71.252 E0.27755
G1 X80.546 Y71.259 E0.28803
G1 X80.893 Y71.272 E0.29958
G1 X149.954 Y74.986 E2.59988
G1 X150.623 Y75.032 E2.62218
G1 X151.555 Y75.136 E2.65337
G1 X152.474 Y75.319 E2.68454
G1 X153.375 Y75.58 E2.71574
G1 X154.251 Y75.917 E2.74695
G1 X155.094 Y76.327 E2.77813
G1 X155.9 Y76.807 E2.80933
G1 X156.661 Y77.354 E2.8405
G1 X157.374 Y77.965 E2.87173
G1 X158.031 Y78.633 E2.9029
G1 X158.63 Y79.355 E2.9341
G1 X159.164 Y80.126 E2.96529
G1 X159.632 Y80.939 E2.99649
G1 X160.028 Y81.789 E3.02768
G1 X160.35 Y82.67 E3.05888
G1 X160.596 Y83.575 E3.09007
G1 X160.764 Y84.498 E3.12128
G1 X160.853 Y85.431 E3.15245
G1 X160.865 Y86.279 E3.18066
G1 X160.857 Y86.601 E3.19137
G1 X160.844 Y86.918 E3.20192
G1 X158.745 Y125.964 E4.50247
G1 X158.699 Y126.658 E4.52561
G1 X158.597 Y127.59 E4.55679
G1 X158.416 Y128.51 E4.58798
G1 X158.157 Y129.412 E4.61919
G1 X157.823 Y130.288 E4.65037
G1 X157.415 Y131.132 E4.68155
G1 X156.937 Y131.939 E4.71275
G1 X156.391 Y132.702 E4.74395
G1 X155.783 Y133.416 E4.77514
G1 X155.116 Y134.075 E4.80633
G1 X154.395 Y134.675 E4.83753
G1 X153.626 Y135.212 E4.86872
G1 X152.814 Y135.681 E4.89991
G1 X151.965 Y136.079 E4.9311
G1 X151.085 Y136.404 E4.9623
G1 X150.18 Y136.652 E4.99351
G1 X149.647 Y136.76 E5.0116
G1 X149.169 Y136.844 E5.02774
G1 X147.155 Y137.168 E5.09559
G1 X144.68 Y137.639 E5.17938
G1 X142.188 Y138.185 E5.26423
G1 X139.788 Y138.784 E5.34651
G1 X137.364 Y139.462 E5.43022
G1 X134.929 Y140.218 E5.51502
G1 X132.565 Y141.026 E5.59812
G1 X130.203 Y141.908 E5.68198
G1 X127.88 Y142.851 E5.76536
G1 X125.526 Y143.885 E5.85088
G1 X124.297 Y144.446 E5.89581
G1 X123.428 Y144.798 E5.927
G1 X122.532 Y145.075 E5.95819
G1 X121.615 Y145.275 E5.9894
G1 X120.685 Y145.397 E6.0206
G1 X119.47 Y145.435 E6.06103
G1 X119.175 Y145.428 E6.07085
G1 X118.846 Y145.415 E6.0818
G1 X104.693 Y144.654 E6.55321
G1 X104.026 Y144.609 E6.57544
G1 X103.71 Y144.583 E6.58599
G1 X103.327 Y144.546 E6.59879
G1 X100.718 Y144.331 E6.68586
G1 X98.198 Y144.196 E6.76979
G1 X95.679 Y144.132 E6.8536
G1 X95.332 Y144.128 E6.86514
G1 X94.706 Y144.113 E6.88597
G1 X94.381 Y144.1 E6.89679
G1 X85.359 Y143.616 E7.19729
G1 X84.523 Y143.559 E7.22516
G1 X83.591 Y143.454 E7.25636
G1 X82.672 Y143.27 E7.28753
G1 X81.771 Y143.009 E7.31873
G1 X80.896 Y142.671 E7.34993
G1 X80.053 Y142.26 E7.38112
G1 X79.248 Y141.779 E7.41231
G1 X78.487 Y141.231 E7.4435
G1 X77.775 Y140.62 E7.47471
G1 X77.118 Y139.951 E7.50589
G1 X76.52 Y139.229 E7.53708
G1 X76.02 Y138.511 E7.56618
G1 X75.348 Y137.459 E7.6077
G1 X73.93 Y135.314 E7.69322
G1 X72.479 Y133.246 E7.77724
G1 X70.989 Y131.246 E7.86019
G1 X69.278 Y129.08 E7.952
G1 X68.721 Y128.326 E7.98318
G1 X68.23 Y127.526 E8.0144
G1 X67.81 Y126.688 E8.04558
G1 X67.462 Y125.817 E8.07677
G1 X67.189 Y124.92 E8.10796
G1 X66.994 Y124.002 E8.13917
G1 X66.878 Y123.072 E8.17034
G1 X66.845 Y121.91 E8.20901
G1 X66.853 Y121.58 E8.21999
G1 X66.866 Y121.257 E8.23074
G1 X68.967 Y82.177 E9.53242
G1 X69.011 Y81.517 E9.55442
G1 X69.114 Y80.585 E9.58561
G1 X69.295 Y79.665 E9.61679
G1 X69.554 Y78.763 E9.64801
G1 X69.889 Y77.887 E9.6792
G1 X70.297 Y77.043 E9.71038
G1 X70.776 Y76.236 E9.74159
G1 X71.321 Y75.474 E9.77275
G1 X71.93 Y74.76 E9.80397
G1 X72.597 Y74.101 E9.83515
G0 F6000 X72.979 Y74.296
G1 F1200 X73.696 Y73.718 E9.86578
G1 X74.46 Y73.204 E9.89641
G1 X75.265 Y72.759 E9.927
G1 X76.107 Y72.385 E9.95765
G1 X76.977 Y72.085 E9.98825
G1 X77.871 Y71.862 E10.0189
G1 X78.78 Y71.718 E10.04951
G1 X79.698 Y71.653 E10.08012
G1 X80.222 Y71.652 E10.09755
G1 X80.537 Y71.659 E10.10803
G1 X80.871 Y71.671 E10.11914
G1 X149.768 Y75.375 E12.41398
G1 X150.595 Y75.431 E12.44155
G1 X151.51 Y75.534 E12.47217
G1 X152.412 Y75.716 E12.50278
G1 X153.296 Y75.976 E12.53342
G1 X154.153 Y76.311 E12.56403
G1 X154.978 Y76.719 E12.59464
G1 X155.765 Y77.198 E12.62528
G1 X156.507 Y77.743 E12.6559
G1 X157.199 Y78.35 E12.68652
G1 X157.836 Y79.015 E12.71715
G1 X158.412 Y79.733 E12.74776
G1 X158.924 Y80.498 E12.77838
G1 X159.368 Y81.304 E12.80899
G1 X159.74 Y82.146 E12.8396
G1 X160.038 Y83.018 E12.87025
G1 X160.259 Y83.911 E12.90085
G1 X160.402 Y84.821 E12.93149
G1 X160.465 Y85.739 E12.96209
G1 X160.465 Y86.269 E12.97972
G1 X160.457 Y86.591 E12.99043
G1 X160.445 Y86.897 E13.00062
G1 X158.346 Y125.937 E14.30097
G1 X158.3 Y126.631 E14.3241
G1 X158.199 Y127.546 E14.35472
G1 X158.019 Y128.449 E14.38535
G1 X157.762 Y129.333 E14.41596
G1 X157.429 Y130.191 E14.44658
G1 X157.022 Y131.017 E14.4772
G1 X156.546 Y131.805 E14.50782
G1 X156.003 Y132.549 E14.53846
G1 X155.397 Y133.242 E14.56908
G1 X154.734 Y133.88 E14.59968
G1 X154.017 Y134.459 E14.63033
G1 X153.254 Y134.973 E14.66093
G1 X152.448 Y135.419 E14.69157
G1 X151.607 Y135.793 E14.72218
G1 X150.737 Y136.093 E14.75279
G1 X149.577 Y136.367 E14.79243
G1 X149.105 Y136.449 E14.80837
G1 X147.095 Y136.773 E14.87608
G1 X144.585 Y137.25 E14.96106
G1 X142.111 Y137.792 E15.0453
G1 X139.698 Y138.394 E15.12801
G1 X137.233 Y139.084 E15.21315
G1 X134.818 Y139.834 E15.29726
G1 X132.412 Y140.656 E15.38182
G1 X130.08 Y141.527 E15.46462
G1 X127.687 Y142.498 E15.55051
G1 X125.408 Y143.499 E15.6333
G1 X124.131 Y144.082 E15.67999
G1 X123.277 Y144.427 E15.71063
G1 X122.397 Y144.697 E15.74124
G1 X121.497 Y144.89 E15.77186
G1 X120.583 Y145.004 E15.80249
G1 X119.48 Y145.035 E15.83919
G1 X119.185 Y145.028 E15.84901
G1 X118.868 Y145.016 E15.85956
G1 X104.719 Y144.255 E16.33084
G1 X104.052 Y144.21 E16.35307
G1 X103.748 Y144.185 E16.36322
G1 X103.323 Y144.144 E16.37742
G1 X100.773 Y143.934 E16.46252
G1 X98.229 Y143.797 E16.54726
G1 X95.643 Y143.731 E16.63329
G1 X95.342 Y143.728 E16.64331
G1 X94.716 Y143.713 E16.66413
G1 X94.402 Y143.701 E16.67458
G1 X85.38 Y143.217 E16.97509
G1 X84.551 Y143.16 E17.00273
G1 X83.636 Y143.057 E17.03335
G1 X82.734 Y142.874 E17.06396
G1 X81.851 Y142.613 E17.09459
G1 X80.994 Y142.277 E17.1252
G1 X80.169 Y141.868 E17.15583
G1 X79.383 Y141.389 E17.18645
G1 X78.641 Y140.843 E17.21709
G1 X77.95 Y140.235 E17.2477
G1 X77.314 Y139.57 E17.2783
G1 X76.738 Y138.851 E17.30895
G1 X76.357 Y138.295 E17.33136
G1 X75.695 Y137.26 E17.37223
G1 X74.264 Y135.093 E17.4586
G1 X72.811 Y133.023 E17.54272
G1 X71.291 Y130.982 E17.62736
G1 X69.658 Y128.914 E17.715
G1 X69.589 Y128.829 E17.71864
G1 X69.043 Y128.088 E17.74925
G1 X68.563 Y127.302 E17.77988
G1 X68.154 Y126.478 E17.81048
G1 X67.817 Y125.621 E17.84111
G1 X67.556 Y124.738 E17.87173
G1 X67.373 Y123.836 E17.90235
G1 X67.268 Y122.921 E17.93298
G1 X67.245 Y121.92 E17.96628
G1 X67.253 Y121.59 E17.97726
G1 X67.265 Y121.278 E17.98765
G1 X69.366 Y82.204 E19.28913
G1 X69.41 Y81.544 E19.31113
G1 X69.512 Y80.629 E19.34175
G1 X69.692 Y79.726 E19.37238
G1 X69.949 Y78.842 E19.403
G1 X70.283 Y77.984 E19.43362
G1 X70.69 Y77.158 E19.46425
G1 X71.166 Y76.37 E19.49486
G1 X71.71 Y75.627 E19.52549
G1 X72.316 Y74.934 E19.55611
G1 X72.979 Y74.296 E19.58671
G0 F6000 X73.361 Y74.495
G1 F1200 X74.073 Y73.939 E19.61676
G1 X74.831 Y73.448 E19.6468
G1 X75.629 Y73.027 E19.67681
G1 X76.462 Y72.677 E19.70686
G1 X77.323 Y72.403 E19.73691
G1 X78.204 Y72.206 E19.76694
G1 X79.099 Y72.088 E19.79696
G1 X80.214 Y72.052 E19.83407
G1 X80.529 Y72.059 E19.84455
G1 X80.85 Y72.071 E19.85523
G1 X149.899 Y75.784 E22.15513
G1 X150.568 Y75.83 E22.17743
G1 X151.465 Y75.932 E22.20746
G1 X152.35 Y76.113 E22.2375
G1 X153.215 Y76.371 E22.26753
G1 X154.054 Y76.705 E22.29756
G1 X154.861 Y77.111 E22.32761
G1 X155.628 Y77.588 E22.35765
G1 X156.35 Y78.13 E22.38768
G1 X157.021 Y78.735 E22.41773
G1 X157.636 Y79.396 E22.44775
G1 X158.191 Y80.109 E22.47781
G1 X158.679 Y80.868 E22.50782
G1 X159.099 Y81.668 E22.53787
G1 X159.447 Y82.501 E22.5679
G1 X159.719 Y83.362 E22.59793
G1 X159.915 Y84.244 E22.62798
G1 X160.031 Y85.14 E22.65803
G1 X160.065 Y86.259 E22.69526
G1 X160.057 Y86.581 E22.70598
G1 X160.045 Y86.875 E22.71576
G1 X157.947 Y125.911 E24.01598
G1 X157.901 Y126.605 E24.03911
G1 X157.801 Y127.502 E24.06913
G1 X157.623 Y128.387 E24.09916
G1 X157.366 Y129.253 E24.1292
G1 X157.035 Y130.093 E24.15923
G1 X156.63 Y130.901 E24.18929
G1 X156.155 Y131.669 E24.21933
G1 X155.615 Y132.392 E24.24934
G1 X155.012 Y133.065 E24.2794
G1 X154.352 Y133.682 E24.30945
G1 X153.641 Y134.238 E24.33947
G1 X152.883 Y134.729 E24.36951
G1 X152.084 Y135.151 E24.39956
G1 X151.251 Y135.5 E24.4296
G1 X150.391 Y135.775 E24.45963
G1 X149.507 Y135.973 E24.48976
G1 X149.042 Y136.054 E24.50546
G1 X147.022 Y136.379 E24.57351
G1 X144.496 Y136.859 E24.65903
G1 X142.033 Y137.4 E24.7429
G1 X139.566 Y138.015 E24.82746
G1 X137.155 Y138.69 E24.91074
G1 X134.676 Y139.459 E24.99706
G1 X132.28 Y140.278 E25.08128
G1 X129.938 Y141.152 E25.16442
G1 X127.542 Y142.125 E25.25044
G1 X125.23 Y143.141 E25.33443
G1 X123.965 Y143.718 E25.38068
G1 X123.127 Y144.056 E25.41073
G1 X122.263 Y144.319 E25.44077
G1 X121.379 Y144.504 E25.47081
G1 X120.483 Y144.61 E25.50082
G1 X119.489 Y144.635 E25.53389
G1 X119.194 Y144.628 E25.5437
G1 X118.889 Y144.616 E25.55385
G1 X104.746 Y143.856 E26.02493
G1 X104.079 Y143.811 E26.04717
G1 X103.787 Y143.787 E26.05691
G1 X103.403 Y143.75 E26.06974
G1 X100.754 Y143.532 E26.15814
G1 X98.262 Y143.398 E26.24115
G1 X95.655 Y143.331 E26.32789
G1 X95.352 Y143.328 E26.33796
G1 X94.726 Y143.313 E26.35879
G1 X94.424 Y143.301 E26.36884
G1 X85.239 Y142.807 E26.67478
G1 X84.579 Y142.761 E26.69678
G1 X83.682 Y142.659 E26.72681
G1 X82.797 Y142.477 E26.75686
G1 X81.932 Y142.218 E26.78689
G1 X81.093 Y141.883 E26.81694
G1 X80.287 Y141.476 E26.84697
G1 X79.52 Y140.999 E26.87702
G1 X78.799 Y140.456 E26.90704
G1 X78.128 Y139.851 E26.93709
G1 X77.514 Y139.189 E26.96712
G1 X76.96 Y138.475 E26.99717
G1 X76.694 Y138.08 E27.01301
G1 X76.034 Y137.047 E27.05379
G1 X74.592 Y134.864 E27.1408
G1 X73.126 Y132.777 E27.22563
G1 X71.623 Y130.758 E27.30935
G1 X69.901 Y128.578 E27.40175
G1 X69.366 Y127.851 E27.43177
G1 X68.897 Y127.079 E27.46181
G1 X68.498 Y126.268 E27.49187
G1 X68.173 Y125.426 E27.52189
G1 X67.924 Y124.558 E27.55193
G1 X67.752 Y123.671 E27.58198
G1 X67.659 Y122.773 E27.612
G1 X67.645 Y121.93 E27.64005
G1 X67.653 Y121.6 E27.65103
G1 X67.665 Y121.3 E27.66101
G1 X69.766 Y82.231 E28.96233
G1 X69.81 Y81.571 E28.98433
G1 X69.909 Y80.673 E29.01438
G1 X70.088 Y79.788 E29.04441
G1 X70.345 Y78.922 E29.07445
G1 X70.677 Y78.082 E29.1045
G1 X71.082 Y77.275 E29.13453
G1 X71.557 Y76.507 E29.16456
G1 X72.098 Y75.784 E29.1946
G1 X72.701 Y75.111 E29.22465
G1 X73.361 Y74.495 E29.25468
G1 F2700 E24.25468
;MESH:Gripper V2 v29.3mf(4)
G0 F6000 X90.14 Y126.604
G0 X89.696 Y125.208
G0 X91.532 Y125.639
G0 X92.038 Y125.94
G0 X92.458 Y126.354
G0 X92.765 Y126.855
G0 X92.945 Y127.415
G0 X92.983 Y128.003
G0 X92.883 Y128.583
G0 X92.644 Y129.121
G0 X92.353 Y129.499
G0 X91.336 Y130.353
;TYPE:WALL-INNER
G1 F2700 E29.25468
G1 F1200 X91.906 Y130.093 E29.27552
G1 X92.399 Y129.702 E29.29644
G1 X92.783 Y129.204 E29.31736
G1 X93.038 Y128.63 E29.33825
G1 X93.145 Y128.011 E29.35914
G1 X93.104 Y127.385 E29.38001
G1 X92.912 Y126.787 E29.4009
G1 X92.585 Y126.252 E29.42175
G1 X92.137 Y125.811 E29.44266
G1 X91.598 Y125.49 E29.46353
G1 X90.997 Y125.307 E29.48442
G1 X90.37 Y125.273 E29.50531
G1 X89.754 Y125.391 E29.52617
G1 X89.184 Y125.651 E29.54701
G1 X88.69 Y126.043 E29.56798
G1 X88.308 Y126.54 E29.58883
G1 X88.054 Y127.114 E29.60971
G1 X87.945 Y127.732 E29.63058
G1 X87.986 Y128.359 E29.65148
G1 X88.178 Y128.957 E29.67237
G1 X88.505 Y129.491 E29.69319
G1 X88.953 Y129.934 E29.71415
G1 X89.494 Y130.254 E29.73505
G1 X90.093 Y130.437 E29.75589
G1 X90.72 Y130.47 E29.77677
G1 X91.336 Y130.353 E29.79762
G0 F6000 X91.214 Y129.969
;TYPE:WALL-OUTER
G1 F1200 X91.696 Y129.749 E29.81525
G1 X92.112 Y129.419 E29.83291
G1 X92.437 Y128.998 E29.8506
G1 X92.652 Y128.513 E29.86824
G1 X92.743 Y127.99 E29.8859
G1 X92.708 Y127.46 E29.90356
G1 X92.546 Y126.955 E29.9212
G1 X92.269 Y126.503 E29.93884
G1 X91.891 Y126.13 E29.9565
G1 X91.435 Y125.859 E29.97414
G1 X90.927 Y125.704 E29.99181
G1 X90.397 Y125.675 E30.00946
G1 X89.876 Y125.775 E30.02711
G1 X89.394 Y125.995 E30.04473
G1 X88.977 Y126.326 E30.06244
G1 X88.654 Y126.746 E30.08006
G1 X88.439 Y127.231 E30.0977
G1 X88.347 Y127.754 E30.11537
G1 X88.382 Y128.284 E30.13303
G1 X88.544 Y128.789 E30.15067
G1 X88.821 Y129.241 E30.1683
G1 X89.199 Y129.615 E30.18599
G1 X89.656 Y129.885 E30.20364
G1 X90.163 Y130.04 E30.22128
G1 X90.693 Y130.068 E30.23893
G1 X91.214 Y129.969 E30.25657
G0 F6000 X91.347 Y130.388
G1 F2700 E25.25657
G0 F6000 X92.283 Y129.589
G0 X92.644 Y129.121
G0 X92.883 Y128.583
G0 X92.983 Y128.003
G0 X92.736 Y126.132
G0 X91.583 Y127.039
G0 X109.566 Y89.054
G0 X109.118 Y90.452
G0 X109.597 Y90.345
;TYPE:WALL-INNER
G1 F2700 E30.25657
G1 F1200 X110.005 Y90.313 E30.27018
G1 X110.401 Y90.174 E30.28414
G1 X110.746 Y89.936 E30.29808
G1 X111.018 Y89.619 E30.31197
G1 X111.2 Y89.239 E30.32599
G1 X111.276 Y88.818 E30.34021
G1 X111.244 Y88.41 E30.35383
G1 X111.105 Y88.016 E30.36772
G1 X110.867 Y87.67 E30.38169
G1 X110.549 Y87.397 E30.39563
G1 X110.169 Y87.216 E30.40963
G1 X109.749 Y87.14 E30.42383
G1 X109.342 Y87.172 E30.4374
G1 X108.947 Y87.311 E30.45133
G1 X108.6 Y87.548 E30.46531
G1 X108.328 Y87.867 E30.47925
G1 X108.146 Y88.246 E30.49323
G1 X108.071 Y88.668 E30.50749
G1 X108.103 Y89.075 E30.52107
G1 X108.242 Y89.468 E30.53493
G1 X108.479 Y89.814 E30.54888
G1 X108.797 Y90.087 E30.56282
G1 X109.177 Y90.269 E30.57684
G1 X109.597 Y90.345 E30.59103
G0 F6000 X109.617 Y89.942
;TYPE:WALL-OUTER
G1 F1200 X109.922 Y89.918 E30.60121
G1 X110.218 Y89.814 E30.61164
G1 X110.476 Y89.636 E30.62207
G1 X110.68 Y89.398 E30.63249
G1 X110.816 Y89.115 E30.64294
G1 X110.873 Y88.798 E30.65365
G1 X110.849 Y88.494 E30.66379
G1 X110.745 Y88.199 E30.6742
G1 X110.567 Y87.939 E30.68468
G1 X110.329 Y87.735 E30.6951
G1 X110.045 Y87.6 E30.70556
G1 X109.729 Y87.543 E30.71624
G1 X109.425 Y87.567 E30.72638
G1 X109.129 Y87.671 E30.73682
G1 X108.87 Y87.848 E30.74725
G1 X108.666 Y88.087 E30.7577
G1 X108.53 Y88.37 E30.76815
G1 X108.474 Y88.687 E30.77885
G1 X108.498 Y88.991 E30.789
G1 X108.602 Y89.286 E30.7994
G1 X108.779 Y89.545 E30.80983
G1 X109.017 Y89.749 E30.82026
G1 X109.301 Y89.885 E30.83073
G1 X109.617 Y89.942 E30.84141
G0 F6000 X109.596 Y90.381
G1 F2700 E25.84141
G0 F6000 X110.328 Y90.029
G0 X110.645 Y89.765
G0 X109.896 Y88.986
G0 X119.365 Y89.429
G0 X118.055 Y90.094
G0 X119.162 Y90.806
;TYPE:WALL-INNER
G1 F2700 E30.84141
G1 F1200 X119.583 Y90.882 E30.85564
G1 X119.991 Y90.85 E30.86925
