;FLAVOR:Marlin
;TIME:5584
;Filament used: 4.8122m
;Layer height: 0.2
;MINX:76.404
;MINY:43.622
;MINZ:0.2
;MAXX:143.591
;MAXY:176.363
;MAXZ:13.2
;Generated with Cura_SteamEngine 4.12.1
M140 S50
M105
M190 S50
M104 S200
M105
M109 S200
M82 ;absolute extrusion mode
M201 X500.00 Y500.00 Z100.00 E5000.00 ;Setup machine max acceleration
M203 X500.00 Y500.00 Z10.00 E50.00 ;Setup machine max feedrate
M204 P500.00 R1000.00 T500.00 ;Setup Print/Retract/Travel acceleration
M205 X8.00 Y8.00 Z0.40 E5.00 ;Setup Jerk
M220 S100 ;Reset Feedrate
M221 S100 ;Reset Flowrate

G28 ;Home

G92 E0 ;Reset Extruder
G1 Z2.0 F3000 ;Move Z Axis up
G1 X10.1 Y20 Z0.28 F5000.0 ;Move to start position
G1 X10.1 Y200.0 Z0.28 F1500.0 E15 ;Draw the first line
G1 X10.4 Y200.0 Z0.28 F5000.0 ;Move to side a little
G1 X10.4 Y20 Z0.28 F1500.0 E30 ;Draw the second line
G92 E0 ;Reset Extruder
G1 Z2.0 F3000 ;Move Z Axis up

G92 E0
G92 E0
G1 F2700 E-5
;LAYER_COUNT:66
;LAYER:0
M107
G0 F6000 X97.55 Y58.772 Z0.2
;TYPE:SKIRT
G1 F2700 E0
G1 F1200 X97.75 Y58.444 E0.01278
G1 X97.931 Y58.155 E0.02412
G1 X98.181 Y57.766 E0.0395
G1 X98.551 Y57.203 E0.06191
G1 X98.753 Y56.906 E0.07385
G1 X99.001 Y56.557 E0.08809
G1 X99.273 Y56.188 E0.10334
G1 X99.513 Y55.87 E0.11659
G1 X99.944 Y55.312 E0.14004
G1 X100.15 Y55.054 E0.15102
G1 X100.311 Y54.858 E0.15946
G1 X100.496 Y54.639 E0.16899
G1 X100.969 Y54.095 E0.19297
G1 X101.41 Y53.603 E0.21495
G1 X101.636 Y53.358 E0.22603
G1 X101.817 Y53.168 E0.23476
G1 X102.014 Y52.966 E0.24414
G1 X102.385 Y52.596 E0.26157
G1 X103.075 Y51.932 E0.29342
G1 X103.309 Y51.714 E0.30406
G1 X103.477 Y51.562 E0.31159
G1 X103.707 Y51.36 E0.32178
G1 X104.267 Y50.883 E0.34624
G1 X104.814 Y50.432 E0.36982
G1 X105.059 Y50.236 E0.38026
G1 X105.447 Y49.938 E0.39653
G1 X105.863 Y49.63 E0.41374
G1 X106.052 Y49.493 E0.42151
G1 X106.665 Y49.059 E0.44649
G1 X107.068 Y48.785 E0.4627
G1 X107.357 Y48.598 E0.47415
G1 X107.981 Y48.209 E0.4986
G1 X108.574 Y47.852 E0.52163
G1 X108.834 Y47.7 E0.53164
G1 X109.11 Y47.544 E0.54219
G1 X109.402 Y47.385 E0.55325
G1 X110.001 Y47.071 E0.57574
G1 X110.63 Y46.753 E0.59918
G1 X110.947 Y46.599 E0.6109
G1 X111.364 Y46.408 E0.62616
G1 X111.872 Y46.186 E0.6446
G1 X112.749 Y45.821 E0.67619
G1 X113.031 Y45.708 E0.6863
G1 X113.269 Y45.617 E0.69477
G1 X113.559 Y45.511 E0.70504
G1 X114.221 Y45.281 E0.72835
G1 X114.901 Y45.057 E0.75216
G1 X115.405 Y44.901 E0.76971
G1 X115.757 Y44.801 E0.78188
G1 X116.39 Y44.633 E0.80366
G1 X117.128 Y44.449 E0.82896
G1 X117.366 Y44.392 E0.8371
G1 X117.614 Y44.336 E0.84556
G1 X117.982 Y44.26 E0.85806
G1 X118.675 Y44.129 E0.88151
G1 X119.364 Y44.01 E0.90477
G1 X119.686 Y43.96 E0.91561
G1 X119.96 Y43.921 E0.92481
G1 X120.281 Y43.88 E0.93558
G1 X120.955 Y43.806 E0.95813
G1 X121.641 Y43.74 E0.98105
G1 X121.932 Y43.715 E0.99076
G1 X122.22 Y43.695 E1.00037
G1 X122.772 Y43.668 E1.01875
G1 X123.046 Y43.659 E1.02787
G1 X124.889 Y43.624 E1.08917
G1 X125.098 Y43.622 E1.09613
G1 X127.272 Y43.622 E1.16843
G1 X128.118 Y43.633 E1.19657
G1 X129.055 Y43.687 E1.22779
G1 X129.983 Y43.82 E1.25897
G1 X130.897 Y44.032 E1.29018
G1 X131.789 Y44.321 E1.32136
G1 X132.653 Y44.684 E1.35253
G1 X133.484 Y45.121 E1.38376
G1 X134.274 Y45.626 E1.41495
G1 X135.018 Y46.197 E1.44614
G1 X135.711 Y46.829 E1.47734
G1 X136.347 Y47.517 E1.5085
G1 X136.923 Y48.258 E1.53971
G1 X137.433 Y49.045 E1.57091
G1 X137.875 Y49.872 E1.60209
G1 X138.244 Y50.734 E1.63328
G1 X138.539 Y51.625 E1.6645
G1 X138.757 Y52.537 E1.69569
G1 X138.894 Y53.447 E1.72629
G1 X139.005 Y54.471 E1.76055
G1 X139.027 Y54.696 E1.76807
G1 X139.703 Y62.428 E2.02622
G1 X139.756 Y63.156 E2.0505
G1 X139.784 Y64.094 E2.08171
G1 X139.76 Y64.702 E2.10195
G1 X139.722 Y65.241 E2.11992
G1 X139.559 Y67.218 E2.1859
G1 X139.424 Y69.731 E2.2696
G1 X139.36 Y72.221 E2.35244
G1 X139.367 Y74.744 E2.43636
G1 X139.445 Y77.274 E2.52055
G1 X139.594 Y79.79 E2.60438
G1 X139.815 Y82.304 E2.68832
G1 X140.103 Y84.783 E2.77132
G1 X140.465 Y87.278 E2.85517
G1 X140.899 Y89.773 E2.93941
G1 X141.393 Y92.205 E3.02195
G1 X141.963 Y94.65 E3.10545
G1 X142.238 Y95.684 E3.14103
G1 X142.566 Y96.976 E3.18537
G1 X142.758 Y97.894 E3.21656
G1 X142.844 Y98.539 E3.23821
G1 X142.953 Y99.595 E3.27351
G1 X143.512 Y106.004 E3.48749
G1 X143.563 Y106.71 E3.51103
G1 X143.591 Y107.648 E3.54224
G1 X143.539 Y108.584 E3.57342
G1 X143.407 Y109.513 E3.60463
G1 X143.196 Y110.427 E3.63583
G1 X142.909 Y111.319 E3.667
G1 X142.546 Y112.184 E3.6982
G1 X142.111 Y113.015 E3.72939
G1 X141.45 Y114.025 E3.76954
G1 X141.13 Y114.46 E3.7875
G1 X139.623 Y116.569 E3.87372
G1 X138.221 Y118.653 E3.95726
G1 X136.875 Y120.782 E4.04103
G1 X135.587 Y122.953 E4.12499
G1 X134.382 Y125.123 E4.20755
G1 X133.211 Y127.378 E4.29206
G1 X132.113 Y129.648 E4.37593
G1 X131.077 Y131.954 E4.46001
G1 X130.921 Y132.32 E4.47324
G1 X130.512 Y133.251 E4.50706
G1 X130.394 Y133.511 E4.51656
G1 X130.218 Y133.879 E4.53013
G1 X129.901 Y134.519 E4.55388
G1 X129.599 Y135.087 E4.57528
G1 X129.058 Y136.035 E4.61158
G1 X127.817 Y138.288 E4.69713
G1 X126.652 Y140.551 E4.78179
G1 X125.56 Y142.824 E4.86566
G1 X124.542 Y145.111 E4.94892
G1 X123.587 Y147.43 E5.03234
G1 X122.674 Y149.832 E5.1178
G1 X121.868 Y152.16 E5.19974
G1 X121.113 Y154.546 E5.28298
G1 X120.415 Y156.997 E5.36774
G1 X119.686 Y159.868 E5.46626
G1 X119.631 Y160.074 E5.47335
G1 X119.555 Y160.345 E5.48271
G1 X119.484 Y160.586 E5.49107
G1 X119.403 Y160.848 E5.50019
G1 X119.195 Y161.494 E5.52276
G1 X118.992 Y162.069 E5.54305
G1 X118.889 Y162.337 E5.5526
G1 X118.75 Y162.681 E5.56494
G1 X118.66 Y162.895 E5.57266
G1 X118.38 Y163.537 E5.59595
G1 X118.114 Y164.103 E5.61675
G1 X117.977 Y164.374 E5.62685
G1 X117.814 Y164.685 E5.63853
G1 X117.68 Y164.93 E5.64782
G1 X117.335 Y165.541 E5.67116
G1 X117.016 Y166.07 E5.6917
G1 X116.907 Y166.24 E5.69842
G1 X116.753 Y166.473 E5.70771
G1 X116.468 Y166.889 E5.72448
G1 X116.075 Y167.442 E5.74705
G1 X115.683 Y167.961 E5.76868
G1 X115.462 Y168.236 E5.78041
G1 X115.178 Y168.575 E5.79512
G1 X114.673 Y169.154 E5.82067
G1 X114.224 Y169.639 E5.84266
G1 X113.91 Y169.956 E5.8575
G1 X113.794 Y170.07 E5.86291
G1 X113.57 Y170.284 E5.87321
G1 X113.065 Y170.753 E5.89613
G1 X112.551 Y171.201 E5.91881
G1 X112.263 Y171.437 E5.9312
G1 X111.932 Y171.698 E5.94522
G1 X111.314 Y172.166 E5.971
G1 X110.787 Y172.541 E5.99251
G1 X110.416 Y172.786 E6.0073
G1 X109.988 Y173.055 E6.02411
G1 X109.378 Y173.422 E6.04779
G1 X108.865 Y173.712 E6.06739
G1 X108.59 Y173.858 E6.07775
G1 X108.134 Y174.086 E6.0947
G1 X107.398 Y174.434 E6.12178
G1 X106.788 Y174.7 E6.14391
G1 X106.382 Y174.862 E6.15845
G1 X105.977 Y175.013 E6.17283
G1 X105.33 Y175.241 E6.19565
G1 X104.78 Y175.418 E6.21486
G1 X104.549 Y175.486 E6.22287
G1 X104.237 Y175.573 E6.23364
G1 X103.832 Y175.677 E6.24755
G1 X103.124 Y175.847 E6.27177
G1 X102.549 Y175.969 E6.29132
G1 X102.283 Y176.018 E6.30032
G1 X101.883 Y176.085 E6.31381
G1 X101.584 Y176.129 E6.32386
G1 X100.917 Y176.218 E6.34624
G1 X100.318 Y176.282 E6.36627
G1 X99.812 Y176.319 E6.38315
G1 X99.621 Y176.33 E6.38951
G1 X99.326 Y176.343 E6.39933
G1 X98.673 Y176.363 E6.42106
G1 X98.013 Y176.363 E6.44301
G1 X97.604 Y176.351 E6.45662
G1 X97.145 Y176.328 E6.47191
G1 X96.415 Y176.276 E6.49625
G1 X95.776 Y176.212 E6.51761
G1 X95.37 Y176.157 E6.53124
G1 X95.154 Y176.125 E6.5385
G1 X94.875 Y176.08 E6.5479
G1 X94.216 Y175.965 E6.57015
G1 X93.609 Y175.842 E6.59075
G1 X93.189 Y175.741 E6.60512
G1 X92.927 Y175.674 E6.61411
G1 X92.666 Y175.604 E6.6231
G1 X92.049 Y175.43 E6.64442
G1 X91.462 Y175.247 E6.66487
G1 X91.165 Y175.145 E6.67531
G1 X90.773 Y175.002 E6.68919
G1 X90.554 Y174.918 E6.69699
G1 X89.921 Y174.667 E6.71964
G1 X89.382 Y174.437 E6.73913
G1 X89.184 Y174.346 E6.74638
G1 X88.907 Y174.214 E6.75659
G1 X88.664 Y174.094 E6.7656
G1 X87.881 Y173.688 E6.79494
G1 X87.314 Y173.372 E6.81653
G1 X87.06 Y173.22 E6.82637
G1 X86.725 Y173.012 E6.83949
G1 X86.532 Y172.887 E6.84713
G1 X85.947 Y172.501 E6.87045
G1 X85.442 Y172.148 E6.89094
G1 X85.212 Y171.977 E6.90047
G1 X84.861 Y171.706 E6.91522
G1 X84.707 Y171.583 E6.92178
G1 X84.195 Y171.166 E6.94374
G1 X83.745 Y170.778 E6.9635
G1 X83.559 Y170.609 E6.97186
G1 X83.331 Y170.396 E6.98224
G1 X83.148 Y170.22 E6.99068
G1 X82.961 Y170.036 E6.99941
G1 X82.502 Y169.573 E7.02109
G1 X82.077 Y169.119 E7.04178
G1 X81.724 Y168.716 E7.05959
G1 X81.462 Y168.401 E7.07322
G1 X81.047 Y167.888 E7.09517
G1 X80.659 Y167.38 E7.11643
G1 X80.507 Y167.168 E7.1251
G1 X80.272 Y166.828 E7.13885
G1 X80.134 Y166.621 E7.14713
G1 X79.757 Y166.043 E7.17008
G1 X79.414 Y165.482 E7.19195
G1 X79.172 Y165.053 E7.20833
G1 X78.972 Y164.679 E7.22244
G1 X78.664 Y164.081 E7.24481
G1 X78.381 Y163.49 E7.2666
G1 X78.267 Y163.232 E7.27599
G1 X78.13 Y162.908 E7.28769
G1 X78.041 Y162.689 E7.29555
G1 X77.775 Y162.011 E7.31977
G1 X77.532 Y161.326 E7.34395
G1 X77.408 Y160.936 E7.35756
G1 X77.286 Y160.524 E7.37185
G1 X77.094 Y159.827 E7.39589
G1 X76.946 Y159.223 E7.41658
G1 X76.865 Y158.847 E7.42937
G1 X76.773 Y158.368 E7.44559
G1 X76.653 Y157.66 E7.46948
G1 X76.566 Y157.042 E7.49023
G1 X76.513 Y156.544 E7.50689
G1 X76.476 Y156.095 E7.52188
G1 X76.431 Y155.426 E7.54418
G1 X76.406 Y154.79 E7.56535
G1 X76.404 Y154.575 E7.5725
G1 X76.41 Y154.05 E7.58996
G1 X76.416 Y153.817 E7.59771
G1 X76.442 Y153.132 E7.62051
G1 X76.485 Y152.496 E7.64171
G1 X76.535 Y152 E7.6583
G1 X76.586 Y151.59 E7.67204
G1 X76.682 Y150.91 E7.69488
G1 X76.794 Y150.257 E7.71691
G1 X76.869 Y149.888 E7.72944
G1 X76.969 Y149.446 E7.74451
G1 X77.146 Y148.728 E7.76911
G1 X77.302 Y148.161 E7.78867
G1 X77.392 Y147.865 E7.79896
G1 X77.512 Y147.49 E7.81205
G1 X77.595 Y147.253 E7.8204
G1 X77.89 Y146.431 E7.84945
G1 X77.986 Y146.174 E7.85858
G1 X78.183 Y145.667 E7.87667
G1 X84.415 Y130.087 E8.43478
G1 X85.359 Y127.628 E8.52238
G1 X86.181 Y125.29 E8.60481
G1 X86.953 Y122.877 E8.68908
G1 X87.657 Y120.445 E8.77329
G1 X88.291 Y117.996 E8.85742
G1 X88.853 Y115.547 E8.941
G1 X89.335 Y113.112 E9.02356
G1 X89.763 Y110.601 E9.10828
G1 X90.11 Y108.142 E9.19087
G1 X90.498 Y104.491 E9.31299
G1 X93.216 Y72.867 E10.36869
G1 X93.236 Y72.659 E10.37564
G1 X93.422 Y70.89 E10.4348
G1 X93.466 Y70.534 E10.44673
G1 X93.551 Y69.919 E10.46738
G1 X93.6 Y69.595 E10.47828
G1 X93.642 Y69.346 E10.48668
G1 X93.697 Y69.047 E10.49679
G1 X93.832 Y68.369 E10.51978
G1 X93.977 Y67.691 E10.54284
G1 X94.056 Y67.348 E10.55455
G1 X94.131 Y67.045 E10.56493
G1 X94.203 Y66.77 E10.57438
G1 X94.34 Y66.272 E10.59156
G1 X94.584 Y65.442 E10.62034
G1 X94.67 Y65.162 E10.63008
G1 X94.827 Y64.686 E10.64675
G1 X94.937 Y64.371 E10.65785
G1 X95.094 Y63.94 E10.6731
G1 X95.357 Y63.245 E10.69782
G1 X95.45 Y63.006 E10.70635
G1 X95.542 Y62.779 E10.7145
G1 X95.669 Y62.479 E10.72533
G1 X95.89 Y61.977 E10.74357
G1 X95.994 Y61.748 E10.75194
G1 X96.285 Y61.126 E10.77478
G1 X96.502 Y60.684 E10.79116
G1 X96.648 Y60.4 E10.80178
G1 X96.984 Y59.775 E10.82538
G1 X97.343 Y59.129 E10.84996
G1 X97.55 Y58.772 E10.86369
G0 F6000 X97.892 Y58.979
G1 F1200 X98.089 Y58.655 E10.8763
G1 X98.268 Y58.37 E10.88749
G1 X98.516 Y57.985 E10.90272
G1 X98.886 Y57.422 E10.92513
G1 X99.08 Y57.137 E10.9366
G1 X99.324 Y56.794 E10.9506
G1 X99.593 Y56.428 E10.9657
G1 X99.83 Y56.114 E10.97879
G1 X100.261 Y55.556 E11.00224
G1 X100.459 Y55.308 E11.0128
G1 X100.62 Y55.112 E11.02123
G1 X100.798 Y54.901 E11.03041
G1 X101.267 Y54.362 E11.05418
G1 X101.708 Y53.87 E11.07615
G1 X101.926 Y53.634 E11.08684
G1 X102.107 Y53.444 E11.09557
G1 X102.297 Y53.25 E11.1046
G1 X102.816 Y52.734 E11.12894
G1 X103.352 Y52.22 E11.15364
G1 X103.577 Y52.011 E11.16385
G1 X103.745 Y51.859 E11.17139
G1 X103.967 Y51.664 E11.18122
G1 X104.522 Y51.191 E11.20547
G1 X105.069 Y50.74 E11.22905
G1 X105.304 Y50.552 E11.23906
G1 X105.484 Y50.412 E11.24664
G1 X105.685 Y50.26 E11.25503
G1 X106.101 Y49.952 E11.27224
G1 X106.283 Y49.82 E11.27972
G1 X106.896 Y49.386 E11.3047
G1 X107.118 Y49.233 E11.31367
G1 X107.291 Y49.117 E11.3206
G1 X107.569 Y48.937 E11.33161
G1 X108.187 Y48.552 E11.35583
G1 X108.78 Y48.195 E11.37885
G1 X109.031 Y48.048 E11.38852
G1 X109.307 Y47.892 E11.39907
G1 X109.588 Y47.739 E11.40971
G1 X110.181 Y47.428 E11.43198
G1 X110.81 Y47.11 E11.45542
G1 X111.116 Y46.962 E11.46673
G1 X111.524 Y46.775 E11.48166
G1 X112.219 Y46.473 E11.50686
G1 X112.902 Y46.19 E11.53145
G1 X113.174 Y46.082 E11.54118
G1 X113.412 Y45.991 E11.54966
G1 X113.691 Y45.889 E11.55954
G1 X114.347 Y45.661 E11.58264
G1 X115.027 Y45.437 E11.60645
G1 X115.261 Y45.363 E11.61461
G1 X115.521 Y45.284 E11.62365
G1 X115.86 Y45.187 E11.63538
G1 X116.487 Y45.021 E11.65695
G1 X117.225 Y44.837 E11.68225
G1 X117.454 Y44.782 E11.69008
G1 X117.702 Y44.726 E11.69854
G1 X118.056 Y44.653 E11.71056
G1 X118.743 Y44.524 E11.73381
G1 X119.432 Y44.405 E11.75706
G1 X119.742 Y44.356 E11.7675
G1 X120.016 Y44.317 E11.77671
G1 X120.325 Y44.277 E11.78707
G1 X120.823 Y44.221 E11.80374
G1 X121.679 Y44.138 E11.83234
G1 X121.96 Y44.114 E11.84172
G1 X122.248 Y44.094 E11.85133
G1 X122.517 Y44.079 E11.86029
G1 X122.79 Y44.067 E11.86938
G1 X123.054 Y44.059 E11.87816
G1 X124.897 Y44.024 E11.93947
G1 X125.098 Y44.022 E11.94615
G1 X127.272 Y44.022 E12.01846
G1 X128.113 Y44.033 E12.04644
G1 X129.032 Y44.087 E12.07706
G1 X129.943 Y44.219 E12.10767
G1 X130.839 Y44.431 E12.1383
G1 X131.713 Y44.719 E12.1689
G1 X132.559 Y45.083 E12.19953
G1 X133.37 Y45.518 E12.23014
G1 X134.141 Y46.022 E12.26078
G1 X134.864 Y46.591 E12.29138
G1 X135.536 Y47.22 E12.322
G1 X136.151 Y47.906 E12.35264
G1 X136.703 Y48.642 E12.38324
G1 X137.19 Y49.424 E12.41388
G1 X137.607 Y50.244 E12.44448
G1 X137.952 Y51.098 E12.47511
G1 X138.221 Y51.979 E12.50575
G1 X138.412 Y52.879 E12.53635
G1 X138.496 Y53.49 E12.55686
G1 X138.629 Y54.731 E12.59837
G1 X139.292 Y62.302 E12.85115
G1 X139.357 Y63.185 E12.8806
G1 X139.384 Y64.106 E12.91124
G1 X139.361 Y64.675 E12.93018
G1 X139.323 Y65.208 E12.94796
G1 X139.162 Y67.162 E13.01317
G1 X139.025 Y69.7 E13.09771
G1 X138.96 Y72.247 E13.18245
G1 X138.967 Y74.757 E13.26593
G1 X139.045 Y77.276 E13.34975
G1 X139.197 Y79.848 E13.43545
G1 X139.413 Y82.314 E13.51778
G1 X139.708 Y84.85 E13.6027
G1 X140.069 Y87.338 E13.68631
G1 X140.505 Y89.843 E13.77088
G1 X141 Y92.277 E13.8535
G1 X141.583 Y94.777 E13.93888
G1 X141.85 Y95.783 E13.97349
G1 X142.178 Y97.075 E14.01783
G1 X142.366 Y97.976 E14.04844
G1 X142.446 Y98.58 E14.06871
G1 X142.555 Y99.63 E14.10382
G1 X143.101 Y105.874 E14.31229
G1 X143.164 Y106.739 E14.34113
G1 X143.191 Y107.66 E14.37178
G1 X143.137 Y108.579 E14.4024
G1 X143.004 Y109.49 E14.43302
G1 X142.793 Y110.386 E14.46364
G1 X142.504 Y111.26 E14.49425
G1 X142.141 Y112.106 E14.52487
G1 X141.705 Y112.917 E14.5555
G1 X141.128 Y113.788 E14.59025
G1 X140.803 Y114.23 E14.60849
G1 X139.293 Y116.342 E14.69485
G1 X137.884 Y118.438 E14.77885
G1 X136.536 Y120.57 E14.86274
G1 X135.236 Y122.761 E14.94748
G1 X134.03 Y124.933 E15.03011
G1 X132.854 Y127.199 E15.11502
G1 X131.746 Y129.488 E15.1996
G1 X130.709 Y131.797 E15.28379
G1 X130.555 Y132.159 E15.29687
G1 X130.146 Y133.09 E15.3307
G1 X129.952 Y133.51 E15.34608
G1 X129.86 Y133.702 E15.35316
G1 X129.543 Y134.342 E15.37692
G1 X129.251 Y134.889 E15.39754
G1 X128.732 Y135.798 E15.43236
G1 X127.454 Y138.118 E15.52045
G1 X126.293 Y140.373 E15.60481
G1 X125.206 Y142.638 E15.68837
G1 X124.17 Y144.962 E15.773
G1 X123.214 Y147.284 E15.85652
G1 X122.298 Y149.696 E15.94233
G1 X121.484 Y152.046 E16.02505
G1 X120.729 Y154.431 E16.10826
G1 X120.028 Y156.894 E16.19343
G1 X119.299 Y159.764 E16.29192
G1 X119.171 Y160.232 E16.30806
G1 X119.1 Y160.473 E16.31641
G1 X119.022 Y160.726 E16.32522
G1 X118.814 Y161.372 E16.34779
G1 X118.618 Y161.926 E16.36733
G1 X118.515 Y162.194 E16.37688
G1 X118.38 Y162.529 E16.3889
