;FLAVOR:Marlin
;TIME:5599
;Filament used: 4.81762m
;Layer height: 0.2
;MINX:57.895
;MINY:52.96
;MINZ:0.2
;MAXX:162.225
;MAXY:166.579
;MAXZ:13.2
;Generated with Cura_SteamEngine 4.12.1
M140 S50
M105
M190 S50
M104 S200
M105
M109 S200
M82 ;absolute extrusion mode
M201 X500.00 Y500.00 Z100.00 E5000.00 ;Setup machine max acceleration
M203 X500.00 Y500.00 Z10.00 E50.00 ;Setup machine max feedrate
M204 P500.00 R1000.00 T500.00 ;Setup Print/Retract/Travel acceleration
M205 X8.00 Y8.00 Z0.40 E5.00 ;Setup Jerk
M220 S100 ;Reset Feedrate
M221 S100 ;Reset Flowrate

G28 ;Home

G92 E0 ;Reset Extruder
G1 Z2.0 F3000 ;Move Z Axis up
G1 X10.1 Y20 Z0.28 F5000.0 ;Move to start position
G1 X10.1 Y200.0 Z0.28 F1500.0 E15 ;Draw the first line
G1 X10.4 Y200.0 Z0.28 F5000.0 ;Move to side a little
G1 X10.4 Y20 Z0.28 F1500.0 E30 ;Draw the second line
G92 E0 ;Reset Extruder
G1 Z2.0 F3000 ;Move Z Axis up

G92 E0
G92 E0
G1 F2700 E-5
;LAYER_COUNT:66
;LAYER:0
M107
G0 F6000 X91.483 Y82.222 Z0.2
;TYPE:SKIRT
G1 F2700 E0
G1 F1200 X92.168 Y81.581 E0.0312
G1 X92.905 Y81.001 E0.0624
G1 X93.598 Y80.541 E0.09006
G1 X93.814 Y80.409 E0.09848
G1 X94.165 Y80.203 E0.11202
G1 X100.179 Y76.827 E0.3414
G1 X100.902 Y76.434 E0.36877
G1 X101.745 Y76.022 E0.39998
G1 X102.301 Y75.798 E0.41992
G1 X102.825 Y75.603 E0.43852
G1 X104.694 Y74.938 E0.5045
G1 X107.034 Y74.029 E0.58799
G1 X109.345 Y73.055 E0.6714
G1 X111.657 Y72.004 E0.75587
G1 X113.889 Y70.911 E0.83853
G1 X116.14 Y69.729 E0.9231
G1 X118.307 Y68.511 E1.00577
G1 X120.481 Y67.208 E1.09007
G1 X122.612 Y65.846 E1.17419
G1 X124.689 Y64.436 E1.25769
G1 X126.723 Y62.969 E1.3411
G1 X128.731 Y61.431 E1.42522
G1 X129.486 Y60.817 E1.45759
G1 X130.571 Y59.952 E1.50374
G1 X131.328 Y59.399 E1.53492
G1 X131.881 Y59.054 E1.5566
G1 X132.79 Y58.525 E1.59158
G1 X139.688 Y54.654 E1.85467
G1 X140.358 Y54.29 E1.88003
G1 X141.2 Y53.878 E1.91121
G1 X142.075 Y53.54 E1.94241
G1 X142.975 Y53.277 E1.97359
G1 X143.895 Y53.092 E2.0048
G1 X144.827 Y52.986 E2.036
G1 X145.764 Y52.96 E2.06718
G1 X146.701 Y53.014 E2.0984
G1 X147.629 Y53.147 E2.12958
G1 X148.543 Y53.359 E2.16078
G1 X149.435 Y53.648 E2.19197
G1 X150.299 Y54.012 E2.22315
G1 X151.129 Y54.449 E2.25435
G1 X151.919 Y54.954 E2.28554
G1 X152.664 Y55.525 E2.31676
G1 X153.356 Y56.157 E2.34793
G1 X153.993 Y56.846 E2.37914
G1 X154.555 Y57.568 E2.40957
G1 X155.146 Y58.396 E2.4434
G1 X155.277 Y58.584 E2.45102
G1 X156.306 Y60.091 E2.51172
G1 X156.426 Y60.27 E2.51888
G1 X157.432 Y61.807 E2.57998
G1 X157.631 Y62.123 E2.5924
G1 X157.943 Y62.637 E2.6124
G1 X158.096 Y62.896 E2.62241
G1 X158.23 Y63.131 E2.6314
G1 X158.374 Y63.392 E2.64132
G1 X158.701 Y64.007 E2.66448
G1 X159.025 Y64.639 E2.68811
G1 X159.15 Y64.892 E2.69749
G1 X159.274 Y65.15 E2.70701
G1 X159.438 Y65.506 E2.72005
G1 X159.69 Y66.086 E2.74108
G1 X159.966 Y66.74 E2.76469
G1 X160.091 Y67.047 E2.77572
G1 X160.18 Y67.277 E2.78392
G1 X160.283 Y67.555 E2.79378
G1 X160.459 Y68.049 E2.81122
G1 X160.528 Y68.249 E2.81826
G1 X160.76 Y68.942 E2.84257
G1 X160.912 Y69.422 E2.85931
G1 X161.028 Y69.821 E2.87313
G1 X161.202 Y70.471 E2.89551
G1 X161.374 Y71.15 E2.91881
G1 X161.452 Y71.477 E2.92999
G1 X161.536 Y71.857 E2.94293
G1 X161.596 Y72.146 E2.95275
G1 X161.698 Y72.681 E2.97087
G1 X161.823 Y73.385 E2.99465
G1 X161.877 Y73.72 E3.00593
G1 X161.918 Y74.001 E3.01538
G1 X161.958 Y74.303 E3.02551
G1 X162.041 Y75.023 E3.04962
G1 X162.106 Y75.659 E3.07088
G1 X162.138 Y76.03 E3.08327
G1 X162.164 Y76.412 E3.096
G1 X162.18 Y76.702 E3.10566
G1 X162.202 Y77.268 E3.1245
G1 X162.221 Y77.964 E3.14766
G1 X162.225 Y78.264 E3.15764
G1 X162.225 Y78.536 E3.16668
G1 X162.22 Y78.882 E3.17819
G1 X162.197 Y79.558 E3.20069
G1 X162.164 Y80.263 E3.22416
G1 X162.146 Y80.56 E3.23406
G1 X162.127 Y80.817 E3.24263
G1 X162.096 Y81.164 E3.25422
G1 X162.016 Y81.904 E3.27897
G1 X161.933 Y82.575 E3.30146
G1 X161.892 Y82.869 E3.31133
G1 X161.853 Y83.127 E3.32001
G1 X161.806 Y83.417 E3.32978
G1 X161.686 Y84.08 E3.35219
G1 X161.541 Y84.818 E3.37721
G1 X161.441 Y85.272 E3.39267
G1 X161.337 Y85.704 E3.40745
G1 X161.201 Y86.23 E3.42552
G1 X160.977 Y87.045 E3.45363
G1 X160.897 Y87.322 E3.46322
G1 X160.823 Y87.565 E3.47167
G1 X160.722 Y87.879 E3.48264
G1 X160.501 Y88.528 E3.50545
G1 X160.236 Y89.268 E3.53159
G1 X160.138 Y89.532 E3.54095
G1 X160.071 Y89.705 E3.54712
G1 X159.943 Y90.019 E3.5584
G1 X159.645 Y90.719 E3.58371
G1 X159.357 Y91.365 E3.60723
G1 X159.246 Y91.606 E3.61606
G1 X159.132 Y91.846 E3.62489
G1 X158.963 Y92.185 E3.63749
G1 X158.646 Y92.796 E3.66039
G1 X158.319 Y93.406 E3.68341
G1 X158.131 Y93.742 E3.69621
G1 X157.95 Y94.053 E3.70818
G1 X157.814 Y94.281 E3.71701
G1 X157.499 Y94.791 E3.73695
G1 X157.13 Y95.371 E3.75981
G1 X156.962 Y95.627 E3.77
G1 X156.818 Y95.84 E3.77855
G1 X156.561 Y96.207 E3.79345
G1 X156.293 Y96.577 E3.80864
G1 X155.791 Y97.25 E3.83657
G1 X155.609 Y97.488 E3.84654
G1 X155.439 Y97.703 E3.85565
G1 X155.236 Y97.951 E3.86631
G1 X154.755 Y98.522 E3.89114
G1 X154.334 Y99.006 E3.91248
G1 X154.136 Y99.227 E3.92235
G1 X153.945 Y99.435 E3.93174
G1 X153.719 Y99.674 E3.94268
G1 X153.232 Y100.171 E3.96582
G1 X152.707 Y100.691 E3.9904
G1 X152.494 Y100.897 E4.00026
G1 X152.315 Y101.065 E4.00842
G1 X152.123 Y101.241 E4.01708
G1 X151.923 Y101.42 E4.02601
G1 X151.699 Y101.615 E4.03589
G1 X150.296 Y102.804 E4.09706
G1 X150.138 Y102.935 E4.10388
G1 X125.551 Y122.996 E5.15932
G1 X123.567 Y124.663 E5.24551
G1 X121.682 Y126.34 E5.32942
G1 X119.859 Y128.054 E5.41265
G1 X118.051 Y129.855 E5.49752
G1 X116.332 Y131.666 E5.58057
G1 X114.665 Y133.527 E5.66367
G1 X113.001 Y135.491 E5.74929
G1 X111.46 Y137.418 E5.83135
G1 X109.967 Y139.4 E5.91388
G1 X107.827 Y142.449 E6.03778
G1 X98.525 Y156.294 E6.59255
G1 X97.979 Y157.081 E6.62441
G1 X97.821 Y157.303 E6.63347
G1 X97.589 Y157.62 E6.64654
G1 X97.423 Y157.841 E6.65573
G1 X97.029 Y158.352 E6.67719
G1 X96.627 Y158.843 E6.6983
G1 X96.424 Y159.077 E6.7086
G1 X96.137 Y159.396 E6.72287
G1 X95.98 Y159.565 E6.73054
G1 X95.529 Y160.038 E6.75228
G1 X95.126 Y160.44 E6.77121
G1 X94.924 Y160.631 E6.78046
G1 X94.605 Y160.922 E6.79482
G1 X94.399 Y161.102 E6.80392
G1 X93.82 Y161.596 E6.82923
G1 X93.333 Y161.988 E6.85003
G1 X92.998 Y162.239 E6.86395
G1 X92.626 Y162.507 E6.8792
G1 X92.069 Y162.893 E6.90174
G1 X91.534 Y163.241 E6.92297
G1 X91.126 Y163.487 E6.93881
G1 X90.682 Y163.742 E6.95584
G1 X90.098 Y164.062 E6.97799
G1 X89.575 Y164.33 E6.99754
G1 X89.346 Y164.44 E7.00599
G1 X89.056 Y164.575 E7.01663
G1 X88.693 Y164.734 E7.02981
G1 X88.059 Y165.002 E7.0527
G1 X87.514 Y165.215 E7.07216
G1 X87.276 Y165.301 E7.08058
G1 X86.997 Y165.398 E7.0904
G1 X86.607 Y165.525 E7.10404
G1 X85.94 Y165.73 E7.12725
G1 X85.365 Y165.889 E7.1471
G1 X84.906 Y166.001 E7.16281
G1 X84.733 Y166.04 E7.16871
G1 X84.453 Y166.099 E7.17823
G1 X83.757 Y166.237 E7.20183
G1 X83.133 Y166.342 E7.22287
G1 X82.633 Y166.409 E7.23965
G1 X82.211 Y166.456 E7.25377
G1 X81.492 Y166.523 E7.27779
G1 X80.828 Y166.564 E7.29992
G1 X80.456 Y166.575 E7.3123
G1 X80.197 Y166.579 E7.32091
G1 X79.91 Y166.579 E7.33046
G1 X79.253 Y166.572 E7.35231
G1 X78.644 Y166.549 E7.37258
G1 X78.163 Y166.515 E7.38862
G1 X77.749 Y166.476 E7.40245
G1 X77.032 Y166.396 E7.42644
G1 X76.444 Y166.314 E7.44619
G1 X76.174 Y166.269 E7.45529
G1 X75.861 Y166.213 E7.46587
G1 X75.479 Y166.135 E7.47884
G1 X74.847 Y165.998 E7.50035
G1 X74.279 Y165.859 E7.51979
G1 X74.008 Y165.785 E7.52914
G1 X73.716 Y165.701 E7.53924
G1 X73.324 Y165.58 E7.55289
G1 X72.663 Y165.364 E7.57602
G1 X72.081 Y165.155 E7.59659
G1 X71.835 Y165.059 E7.60537
G1 X71.55 Y164.944 E7.61559
G1 X71.203 Y164.795 E7.62815
G1 X70.544 Y164.501 E7.65215
G1 X69.988 Y164.234 E7.67267
G1 X69.757 Y164.115 E7.68131
G1 X69.342 Y163.891 E7.69699
G1 X68.576 Y163.453 E7.72634
G1 X68.074 Y163.146 E7.74591
G1 X67.827 Y162.986 E7.7557
G1 X67.401 Y162.696 E7.77284
G1 X66.738 Y162.221 E7.79997
G1 X66.225 Y161.831 E7.8214
G1 X66.005 Y161.653 E7.83081
G1 X65.687 Y161.387 E7.8446
G1 X64.973 Y160.756 E7.8763
G1 X64.519 Y160.331 E7.89698
G1 X64.36 Y160.173 E7.90444
G1 X64.035 Y159.838 E7.91996
G1 X63.86 Y159.651 E7.92848
G1 X63.402 Y159.151 E7.95103
G1 X62.965 Y158.645 E7.97327
G1 X62.722 Y158.345 E7.98611
G1 X62.449 Y157.993 E8.00092
G1 X62.005 Y157.397 E8.02564
G1 X61.651 Y156.893 E8.04613
G1 X61.397 Y156.505 E8.06155
G1 X61.264 Y156.294 E8.06985
G1 X61.11 Y156.042 E8.07967
G1 X60.783 Y155.491 E8.10098
G1 X60.497 Y154.978 E8.12052
G1 X60.352 Y154.701 E8.13092
G1 X60.16 Y154.318 E8.14516
G1 X60.045 Y154.077 E8.15405
G1 X59.766 Y153.475 E8.17611
G1 X59.524 Y152.914 E8.19644
G1 X59.423 Y152.66 E8.20553
G1 X59.262 Y152.233 E8.22071
G1 X58.968 Y151.387 E8.25049
G1 X58.777 Y150.779 E8.27169
G1 X58.706 Y150.527 E8.2804
G1 X58.595 Y150.103 E8.29498
G1 X58.538 Y149.871 E8.30292
G1 X58.372 Y149.155 E8.32737
G1 X58.257 Y148.591 E8.34651
G1 X58.174 Y148.106 E8.36288
G1 X58.108 Y147.649 E8.37824
G1 X58.021 Y146.962 E8.40127
G1 X57.96 Y146.339 E8.42209
G1 X57.94 Y146.05 E8.43172
G1 X57.921 Y145.689 E8.44375
G1 X57.895 Y144.75 E8.47499
G1 X57.897 Y144.1 E8.49661
G1 X57.91 Y143.71 E8.50959
G1 X57.936 Y143.235 E8.52541
G1 X57.99 Y142.531 E8.54889
G1 X58.052 Y141.941 E8.56863
G1 X58.094 Y141.621 E8.57936
G1 X58.154 Y141.214 E8.59304
G1 X58.307 Y140.347 E8.62233
G1 X58.446 Y139.684 E8.64486
G1 X58.573 Y139.169 E8.6625
G1 X58.676 Y138.791 E8.67553
G1 X58.877 Y138.095 E8.69962
G1 X59.064 Y137.508 E8.72011
G1 X59.152 Y137.257 E8.72896
G1 X59.351 Y136.733 E8.7476
G1 X59.663 Y135.97 E8.77502
G1 X59.941 Y135.346 E8.79774
G1 X60.276 Y134.653 E8.82334
G1 X60.461 Y134.288 E8.83695
G1 X60.637 Y133.956 E8.84945
G1 X60.964 Y133.381 E8.87145
G1 X61.193 Y133.01 E8.88595
G1 X61.454 Y132.604 E8.90201
G1 X61.833 Y132.037 E8.92469
G1 X62.211 Y131.507 E8.94634
G1 X62.473 Y131.163 E8.96072
G1 X62.59 Y131.014 E8.96702
G1 X62.762 Y130.801 E8.97613
G1 X63.204 Y130.266 E8.99921
G1 X63.417 Y130.016 E9.01014
G1 X64.112 Y129.225 E9.04516
G1 X64.726 Y128.543 E9.07568
G1 X66.345 Y126.64 E9.15878
G1 X67.938 Y124.657 E9.24338
G1 X69.459 Y122.649 E9.32716
G1 X70.894 Y120.638 E9.40933
G1 X72.311 Y118.53 E9.49381
G1 X73.676 Y116.368 E9.57885
G1 X74.941 Y114.236 E9.66131
G1 X76.163 Y112.033 E9.7451
G1 X77.323 Y109.799 E9.82882
G1 X77.977 Y108.448 E9.87874
G1 X78.258 Y107.886 E9.89964
G1 X78.404 Y107.604 E9.9102
G1 X78.558 Y107.317 E9.92104
G1 X78.7 Y107.06 E9.9308
G1 X78.893 Y106.728 E9.94357
G1 X79.236 Y106.155 E9.96579
G1 X79.402 Y105.886 E9.9763
G1 X79.771 Y105.307 E9.99914
G1 X81.128 Y103.113 E10.08494
G1 X82.373 Y100.964 E10.16754
G1 X83.591 Y98.721 E10.25243
G1 X84.712 Y96.506 E10.335
G1 X85.805 Y94.188 E10.42024
G1 X86.806 Y91.901 E10.50327
G1 X87.756 Y89.552 E10.58755
G1 X88.631 Y87.191 E10.6713
G1 X88.781 Y86.758 E10.68654
G1 X88.999 Y86.16 E10.70771
G1 X89.358 Y85.293 E10.73892
G1 X89.789 Y84.46 E10.77011
G1 X90.289 Y83.667 E10.80129
G1 X90.855 Y82.919 E10.83249
G1 X91.483 Y82.222 E10.8637
G0 F6000 X91.828 Y82.442
G1 F1200 X92.506 Y81.819 E10.89432
G1 X93.235 Y81.257 E10.92494
G1 X93.807 Y80.882 E10.94769
G1 X94.023 Y80.75 E10.9561
G1 X94.361 Y80.552 E10.96913
G1 X100.512 Y77.1 E11.20373
G1 X101.093 Y76.785 E11.22571
G1 X101.92 Y76.382 E11.25631
G1 X102.441 Y76.172 E11.27499
G1 X102.959 Y75.98 E11.29337
G1 X104.836 Y75.312 E11.35963
G1 X107.156 Y74.411 E11.44241
G1 X109.53 Y73.41 E11.5281
G1 X111.82 Y72.369 E11.61177
G1 X114.072 Y71.267 E11.69516
G1 X116.316 Y70.088 E11.77947
G1 X118.53 Y68.844 E11.86394
G1 X120.697 Y67.546 E11.94795
G1 X122.831 Y66.182 E12.03219
G1 X124.902 Y64.775 E12.11546
G1 X126.977 Y63.278 E12.20056
G1 X128.978 Y61.747 E12.28436
G1 X129.735 Y61.13 E12.31684
G1 X130.82 Y60.265 E12.363
G1 X131.564 Y59.723 E12.39361
G1 X132.083 Y59.399 E12.41396
G1 X132.828 Y58.964 E12.44265
G1 X139.884 Y55.003 E12.71179
G1 X140.548 Y54.641 E12.73694
G1 X141.376 Y54.238 E12.76757
G1 X142.235 Y53.908 E12.79818
G1 X143.12 Y53.654 E12.8288
G1 X144.024 Y53.477 E12.85944
G1 X144.939 Y53.38 E12.89004
G1 X145.86 Y53.362 E12.92068
G1 X146.778 Y53.424 E12.95128
G1 X147.688 Y53.566 E12.98191
G1 X148.582 Y53.786 E13.01254
G1 X149.453 Y54.083 E13.04314
G1 X150.296 Y54.455 E13.07379
G1 X151.103 Y54.898 E13.10441
G1 X151.868 Y55.409 E13.13501
G1 X152.586 Y55.985 E13.16562
G1 X153.252 Y56.622 E13.19628
G1 X153.86 Y57.313 E13.22689
G1 X154.23 Y57.801 E13.24726
G1 X154.821 Y58.629 E13.28109
G1 X154.947 Y58.81 E13.28843
G1 X155.976 Y60.317 E13.34912
G1 X156.091 Y60.489 E13.356
G1 X157.097 Y62.026 E13.4171
G1 X157.289 Y62.331 E13.42909
G1 X157.601 Y62.845 E13.44909
G1 X157.748 Y63.094 E13.4587
G1 X157.882 Y63.329 E13.4677
G1 X158.021 Y63.581 E13.47727
G1 X158.345 Y64.189 E13.50019
G1 X158.669 Y64.821 E13.52381
G1 X158.79 Y65.065 E13.53287
G1 X158.914 Y65.323 E13.54239
G1 X159.071 Y65.666 E13.55493
G1 X159.322 Y66.242 E13.57583
G1 X159.598 Y66.896 E13.59944
G1 X159.718 Y67.192 E13.61006
G1 X159.807 Y67.422 E13.61827
G1 X159.906 Y67.69 E13.62777
G1 X160.149 Y68.376 E13.65198
G1 X160.381 Y69.069 E13.67628
G1 X160.53 Y69.54 E13.69271
G1 X160.642 Y69.925 E13.70605
G1 X160.772 Y70.406 E13.72262
G1 X160.986 Y71.248 E13.75152
G1 X161.061 Y71.563 E13.76229
G1 X161.145 Y71.943 E13.77523
G1 X161.203 Y72.222 E13.78471
G1 X161.304 Y72.751 E13.80262
G1 X161.429 Y73.455 E13.8264
G1 X161.481 Y73.778 E13.83728
G1 X161.522 Y74.059 E13.84673
G1 X161.56 Y74.349 E13.85646
G1 X161.643 Y75.063 E13.88036
G1 X161.708 Y75.699 E13.90163
G1 X161.739 Y76.057 E13.91358
G1 X161.765 Y76.439 E13.92631
G1 X161.78 Y76.719 E13.93564
G1 X161.802 Y77.279 E13.95428
G1 X161.821 Y77.975 E13.97744
G1 X161.825 Y78.264 E13.98705
G1 X161.825 Y78.536 E13.9961
G1 X161.82 Y78.87 E14.00721
G1 X161.804 Y79.378 E14.02411
G1 X161.764 Y80.245 E14.05298
G1 X161.747 Y80.531 E14.06251
G1 X161.728 Y80.788 E14.07108
G1 X161.698 Y81.122 E14.08223
G1 X161.619 Y81.855 E14.10675
G1 X161.536 Y82.526 E14.12924
G1 X161.497 Y82.809 E14.13874
G1 X161.458 Y83.067 E14.14742
G1 X161.412 Y83.346 E14.15683
G1 X161.293 Y84.003 E14.17903
G1 X161.148 Y84.741 E14.20405
G1 X161.053 Y85.178 E14.21892
G1 X160.949 Y85.61 E14.2337
G1 X160.815 Y86.128 E14.2515
G1 X160.592 Y86.939 E14.27947
G1 X160.44 Y87.448 E14.29714
G1 X160.343 Y87.751 E14.30772
G1 X160.188 Y88.21 E14.32384
G1 X159.859 Y89.133 E14.35643
G1 X159.765 Y89.387 E14.36544
G1 X159.698 Y89.56 E14.37161
G1 X159.575 Y89.863 E14.38248
G1 X159.36 Y90.371 E14.40083
G1 X158.991 Y91.202 E14.43107
G1 X158.885 Y91.434 E14.43956
G1 X158.771 Y91.674 E14.44839
G1 X158.608 Y92.001 E14.46054
G1 X158.293 Y92.607 E14.48326
G1 X157.966 Y93.217 E14.50628
G1 X157.785 Y93.541 E14.51862
G1 X157.604 Y93.852 E14.53059
G1 X157.473 Y94.071 E14.53908
G1 X157.161 Y94.576 E14.55882
G1 X156.792 Y95.156 E14.58169
G1 X156.63 Y95.403 E14.59151
G1 X156.352 Y95.81 E14.60791
G1 X156.163 Y96.075 E14.61873
G1 X155.885 Y96.456 E14.63442
G1 X155.471 Y97.01 E14.65742
G1 X155.295 Y97.239 E14.66703
G1 X155.125 Y97.454 E14.67614
G1 X154.929 Y97.694 E14.68645
G1 X154.453 Y98.26 E14.71105
G1 X154.032 Y98.744 E14.73238
G1 X153.842 Y98.956 E14.74185
G1 X153.651 Y99.164 E14.75124
G1 X153.432 Y99.395 E14.76183
G1 X152.95 Y99.887 E14.78474
G1 X152.425 Y100.407 E14.80932
G1 X152.22 Y100.605 E14.8188
G1 X151.856 Y100.943 E14.83532
G1 X151.656 Y101.122 E14.84424
G1 X151.44 Y101.31 E14.85377
G1 X150.037 Y102.499 E14.91494
G1 X149.885 Y102.625 E14.9215
G1 X125.324 Y122.664 E15.9758
G1 X123.289 Y124.374 E16.06421
G1 X121.405 Y126.05 E16.14808
G1 X119.568 Y127.778 E16.23196
G1 X117.797 Y129.542 E16.3151
G1 X116.027 Y131.407 E16.40062
G1 X114.344 Y133.285 E16.48449
G1 X112.716 Y135.207 E16.56827
G1 X111.144 Y137.173 E16.65199
G1 X109.629 Y139.183 E16.73571
