;FLAVOR:Marlin
;TIME:4103
;Filament used: 3.19192m
;Layer height: 0.2
;MINX:47.502
;MINY:68.321
;MINZ:0.2
;MAXX:139.469
;MAXY:126.307
;MAXZ:35
;Generated with Cura_SteamEngine 4.12.1
M140 S50
M105
M190 S50
M104 S200
M105
M109 S200
M82 ;absolute extrusion mode
M201 X500.00 Y500.00 Z100.00 E5000.00 ;Setup machine max acceleration
M203 X500.00 Y500.00 Z10.00 E50.00 ;Setup machine max feedrate
M204 P500.00 R1000.00 T500.00 ;Setup Print/Retract/Travel acceleration
M205 X8.00 Y8.00 Z0.40 E5.00 ;Setup Jerk
M220 S100 ;Reset Feedrate
M221 S100 ;Reset Flowrate

G28 ;Home

G92 E0 ;Reset Extruder
G1 Z2.0 F3000 ;Move Z Axis up
G1 X10.1 Y20 Z0.28 F5000.0 ;Move to start position
G1 X10.1 Y200.0 Z0.28 F1500.0 E15 ;Draw the first line
G1 X10.4 Y200.0 Z0.28 F5000.0 ;Move to side a little
G1 X10.4 Y20 Z0.28 F1500.0 E30 ;Draw the second line
G92 E0 ;Reset Extruder
G1 Z2.0 F3000 ;Move Z Axis up

G92 E0
G92 E0
G1 F2700 E-5
;LAYER_COUNT:175
;LAYER:0
M107
G0 F6000 X55.376 Y81.478 Z0.2
;TYPE:SKIRT
G1 F2700 E0
G1 F1200 X55.733 Y81.245 E0.01418
G1 X56.263 Y80.913 E0.03498
G1 X57.151 Y80.412 E0.06889
G1 X57.397 Y80.288 E0.07805
G1 X57.78 Y80.104 E0.09219
G1 X58.354 Y79.842 E0.11317
G1 X59.263 Y79.475 E0.14578
G1 X59.538 Y79.378 E0.15548
G1 X60.001 Y79.226 E0.17168
G1 X60.607 Y79.042 E0.19275
G1 X61.486 Y78.815 E0.22294
G1 X61.732 Y78.762 E0.23131
G1 X62.229 Y78.667 E0.24814
G1 X62.861 Y78.561 E0.26946
G1 X63.755 Y78.448 E0.29943
G1 X64.039 Y78.424 E0.30891
G1 X64.567 Y78.392 E0.3265
G1 X65.923 Y78.343 E0.37163
G1 X68.486 Y78.214 E0.45698
G1 X71.003 Y78.016 E0.54096
G1 X73.486 Y77.749 E0.62402
G1 X76.002 Y77.407 E0.70847
G1 X78.492 Y76.996 E0.79241
G1 X80.942 Y76.52 E0.87542
G1 X83.402 Y75.97 E0.95926
G1 X85.833 Y75.355 E1.04266
G1 X88.268 Y74.663 E1.12686
G1 X90.679 Y73.905 E1.21092
G1 X93.07 Y73.076 E1.29509
G1 X95.351 Y72.214 E1.37619
G1 X98.127 Y71.067 E1.47609
G1 X99.283 Y70.568 E1.51797
G1 X99.78 Y70.365 E1.53583
G1 X100.028 Y70.268 E1.54468
G1 X100.415 Y70.123 E1.55843
G1 X100.688 Y70.025 E1.56808
G1 X100.949 Y69.935 E1.57726
G1 X101.848 Y69.667 E1.60846
G1 X102.756 Y69.479 E1.6393
G1 X103.763 Y69.314 E1.67324
G1 X104.255 Y69.241 E1.68978
G1 X106.747 Y68.8 E1.77396
G1 X107.43 Y68.661 E1.79714
G1 X108.231 Y68.511 E1.82424
G1 X109.159 Y68.38 E1.85541
G1 X109.903 Y68.332 E1.88021
G1 X110.136 Y68.325 E1.88796
G1 X110.588 Y68.321 E1.903
G1 X111.252 Y68.33 E1.92508
G1 X111.482 Y68.337 E1.93274
G1 X111.808 Y68.352 E1.94359
G1 X112.14 Y68.372 E1.95465
G1 X113.073 Y68.468 E1.98585
G1 X113.941 Y68.631 E2.01522
G1 X114.899 Y68.851 E2.04792
G1 X115.806 Y69.074 E2.07898
G1 X118.333 Y69.623 E2.16499
G1 X118.92 Y69.736 E2.18487
G1 X119.348 Y69.825 E2.19941
G1 X120.249 Y70.053 E2.23033
G1 X120.296 Y70.067 E2.23196
G1 X121.235 Y70.393 E2.26502
G1 X121.513 Y70.504 E2.27497
G1 X122.041 Y70.726 E2.29402
G1 X122.308 Y70.843 E2.30372
G1 X122.538 Y70.948 E2.31213
G1 X122.788 Y71.066 E2.32132
G1 X123.102 Y71.219 E2.33294
G1 X123.927 Y71.666 E2.36415
G1 X124.689 Y72.165 E2.39444
G1 X125.62 Y72.833 E2.43256
G1 X126.235 Y73.286 E2.45796
G1 X128.344 Y74.747 E2.54329
G1 X128.905 Y75.119 E2.56568
G1 X129.249 Y75.355 E2.57956
G1 X130.208 Y76.094 E2.61982
G1 X130.704 Y76.546 E2.64214
G1 X130.858 Y76.695 E2.64927
G1 X131.065 Y76.901 E2.65898
G1 X131.36 Y77.202 E2.673
G1 X131.695 Y77.555 E2.68919
G1 X131.902 Y77.783 E2.69943
G1 X132.118 Y78.027 E2.71027
G1 X132.848 Y78.945 E2.74928
G1 X133.238 Y79.53 E2.77266
G1 X133.89 Y80.581 E2.8138
G1 X134.177 Y81.057 E2.83229
G1 X135.58 Y83.241 E2.91862
G1 X135.905 Y83.723 E2.93796
G1 X136.222 Y84.21 E2.95729
G1 X136.7 Y85.017 E2.98848
G1 X137.102 Y85.852 E3.01931
G1 X137.263 Y86.225 E3.03282
G1 X137.419 Y86.602 E3.04639
G1 X137.522 Y86.866 E3.05581
G1 X137.655 Y87.221 E3.06842
G1 X137.758 Y87.507 E3.07853
G1 X137.86 Y87.804 E3.08898
G1 X138.126 Y88.703 E3.12016
G1 X138.308 Y89.576 E3.14982
G1 X138.493 Y90.7 E3.18771
G1 X138.601 Y91.409 E3.21156
G1 X139.057 Y93.931 E3.2968
G1 X139.189 Y94.587 E3.31906
G1 X139.275 Y95.045 E3.33456
G1 X139.409 Y95.973 E3.36574
G1 X139.462 Y96.857 E3.3952
G1 X139.468 Y97.16 E3.40528
G1 X139.469 Y97.485 E3.41609
G1 X139.461 Y98.058 E3.43515
G1 X139.45 Y98.383 E3.44596
G1 X139.436 Y98.678 E3.45579
G1 X139.417 Y98.991 E3.46622
G1 X139.32 Y99.923 E3.49738
G1 X139.146 Y100.837 E3.52833
G1 X138.846 Y102.113 E3.57193
G1 X138.753 Y102.485 E3.58468
G1 X138.208 Y104.971 E3.66933
G1 X138.067 Y105.689 E3.69366
G1 X137.947 Y106.255 E3.71291
G1 X137.713 Y107.164 E3.74413
G1 X137.498 Y107.804 E3.76658
G1 X137.446 Y107.944 E3.77155
G1 X137.256 Y108.421 E3.78863
G1 X136.999 Y109.025 E3.81046
G1 X136.793 Y109.48 E3.82707
G1 X136.599 Y109.884 E3.84198
G1 X136.157 Y110.711 E3.87317
G1 X135.634 Y111.516 E3.90509
G1 X135.028 Y112.362 E3.93971
G1 X134.463 Y113.131 E3.97144
G1 X133.008 Y115.235 E4.05653
G1 X132.671 Y115.743 E4.0768
G1 X132.435 Y116.087 E4.09068
G1 X131.872 Y116.837 E4.12187
G1 X131.49 Y117.279 E4.1413
G1 X131.417 Y117.359 E4.1449
G1 X130.987 Y117.804 E4.16548
G1 X130.461 Y118.319 E4.18997
G1 X130.075 Y118.679 E4.20752
G1 X129.768 Y118.952 E4.22119
G1 X129.041 Y119.545 E4.25239
G1 X128.3 Y120.052 E4.28225
G1 X127.604 Y120.487 E4.30955
G1 X126.564 Y121.118 E4.35001
G1 X124.412 Y122.508 E4.43522
G1 X124.121 Y122.706 E4.44693
G1 X123.915 Y122.842 E4.45514
G1 X123.541 Y123.084 E4.46995
G1 X122.732 Y123.56 E4.50117
G1 X121.92 Y123.95 E4.53113
G1 X121.637 Y124.072 E4.54138
G1 X121.168 Y124.265 E4.55825
G1 X120.892 Y124.373 E4.56811
G1 X120.569 Y124.494 E4.57958
G1 X120.283 Y124.597 E4.58969
G1 X119.986 Y124.699 E4.60014
G1 X119.087 Y124.965 E4.63132
G1 X118.218 Y125.146 E4.66084
G1 X117.146 Y125.323 E4.69698
G1 X116.404 Y125.435 E4.72194
G1 X113.899 Y125.886 E4.80659
G1 X113.14 Y126.04 E4.83235
G1 X112.718 Y126.118 E4.84663
G1 X111.79 Y126.249 E4.8778
G1 X111.048 Y126.296 E4.90253
G1 X110.814 Y126.303 E4.91031
G1 X110.363 Y126.307 E4.92531
G1 X109.698 Y126.298 E4.94743
G1 X109.469 Y126.291 E4.95505
G1 X109.147 Y126.276 E4.96578
G1 X108.813 Y126.256 E4.9769
G1 X107.881 Y126.16 E5.00807
G1 X106.996 Y125.994 E5.03802
G1 X105.871 Y125.733 E5.07643
G1 X105.109 Y125.545 E5.10253
G1 X102.645 Y125.011 E5.18639
G1 X102.031 Y124.892 E5.20719
G1 X101.603 Y124.803 E5.22173
G1 X100.702 Y124.575 E5.25264
G1 X100.655 Y124.561 E5.25427
G1 X99.716 Y124.235 E5.28733
G1 X99.438 Y124.124 E5.29729
G1 X99.208 Y124.029 E5.30556
G1 X98.898 Y123.897 E5.31677
G1 X98.634 Y123.78 E5.32637
G1 X98.207 Y123.582 E5.34203
G1 X97.123 Y123.057 E5.38209
G1 X94.708 Y121.93 E5.47073
G1 X92.409 Y120.934 E5.55406
G1 X90.073 Y119.999 E5.63775
G1 X87.703 Y119.128 E5.72173
G1 X85.328 Y118.331 E5.80505
G1 X82.893 Y117.589 E5.88972
G1 X80.508 Y116.935 E5.97197
G1 X78.017 Y116.328 E6.05725
G1 X75.561 Y115.804 E6.14077
G1 X73.121 Y115.354 E6.2233
G1 X70.621 Y114.965 E6.30745
G1 X68.135 Y114.65 E6.39079
G1 X65.571 Y114.399 E6.47648
G1 X64.699 Y114.335 E6.50556
G1 X64.055 Y114.28 E6.52706
G1 X63.79 Y114.254 E6.53591
G1 X63.162 Y114.185 E6.55693
G1 X62.223 Y114.041 E6.58852
G1 X61.976 Y113.992 E6.5969
G1 X61.52 Y113.891 E6.61243
G1 X60.894 Y113.739 E6.63386
G1 X60.023 Y113.489 E6.664
G1 X59.749 Y113.398 E6.6736
G1 X59.252 Y113.22 E6.69116
G1 X58.667 Y112.994 E6.71202
G1 X57.812 Y112.621 E6.74304
G1 X57.615 Y112.525 E6.75033
G1 X57.188 Y112.305 E6.76631
G1 X56.578 Y111.974 E6.78939
G1 X55.751 Y111.478 E6.82147
G1 X55.529 Y111.331 E6.83032
G1 X55.122 Y111.048 E6.84681
G1 X54.598 Y110.666 E6.86838
G1 X53.877 Y110.093 E6.89901
G1 X53.698 Y109.938 E6.90688
G1 X53.343 Y109.616 E6.92282
G1 X52.869 Y109.168 E6.94452
G1 X52.174 Y108.448 E6.9778
G1 X51.973 Y108.22 E6.98791
G1 X51.664 Y107.854 E7.00384
G1 X51.271 Y107.367 E7.02466
G1 X50.721 Y106.624 E7.0554
G1 X50.564 Y106.392 E7.06472
G1 X50.307 Y105.994 E7.08048
G1 X49.985 Y105.471 E7.1009
G1 X49.513 Y104.623 E7.13318
G1 X49.388 Y104.373 E7.14248
G1 X49.182 Y103.937 E7.15852
G1 X48.92 Y103.35 E7.1799
G1 X48.581 Y102.497 E7.21043
G1 X48.488 Y102.231 E7.2198
G1 X48.326 Y101.73 E7.23731
G1 X48.145 Y101.12 E7.25848
G1 X47.923 Y100.238 E7.28873
G1 X47.875 Y100.008 E7.29654
G1 X47.787 Y99.533 E7.31261
G1 X47.684 Y98.902 E7.33387
G1 X47.599 Y98.268 E7.35515
G1 X47.565 Y97.899 E7.36747
G1 X47.546 Y97.646 E7.37591
G1 X47.52 Y97.142 E7.3927
G1 X47.502 Y96.523 E7.41329
G1 X47.516 Y95.551 E7.44563
G1 X47.535 Y95.231 E7.45629
G1 X47.573 Y94.764 E7.47187
G1 X47.633 Y94.177 E7.4915
G1 X47.768 Y93.248 E7.52272
G1 X47.822 Y92.963 E7.53237
G1 X47.924 Y92.487 E7.54856
G1 X48.069 Y91.872 E7.56958
G1 X48.33 Y90.945 E7.60161
G1 X48.478 Y90.504 E7.61708
G1 X48.591 Y90.195 E7.62802
G1 X48.797 Y89.651 E7.64737
G1 X49.158 Y88.804 E7.67799
G1 X49.276 Y88.557 E7.6871
G1 X49.511 Y88.095 E7.70434
G1 X49.816 Y87.527 E7.72578
G1 X50.303 Y86.708 E7.75747
G1 X50.445 Y86.491 E7.7661
G1 X50.699 Y86.119 E7.78108
G1 X51.067 Y85.604 E7.80213
G1 X51.618 Y84.896 E7.83197
G1 X51.777 Y84.708 E7.84016
G1 X52.135 Y84.305 E7.85809
G1 X52.598 Y83.809 E7.88066
G1 X53.314 Y83.108 E7.91398
G1 X53.528 Y82.917 E7.92352
G1 X53.864 Y82.63 E7.93822
G1 X54.338 Y82.24 E7.95864
G1 X55.131 Y81.645 E7.99161
G1 X55.376 Y81.478 E8.00147
G0 F6000 X55.602 Y81.808
G1 F1200 X55.945 Y81.584 E8.0151
G1 X56.475 Y81.252 E8.0359
G1 X57.331 Y80.77 E8.06857
G1 X57.577 Y80.646 E8.07774
G1 X57.947 Y80.468 E8.09139
G1 X58.521 Y80.206 E8.11238
G1 X59.396 Y79.853 E8.14376
G1 X59.671 Y79.756 E8.15346
G1 X60.117 Y79.609 E8.16908
G1 X60.723 Y79.425 E8.19014
G1 X61.57 Y79.206 E8.21924
G1 X61.816 Y79.153 E8.22761
G1 X62.296 Y79.061 E8.24387
G1 X62.928 Y78.955 E8.26518
G1 X63.788 Y78.847 E8.29401
G1 X64.072 Y78.823 E8.30349
G1 X64.582 Y78.792 E8.32048
G1 X65.885 Y78.745 E8.36385
G1 X68.54 Y78.611 E8.45227
G1 X71.038 Y78.415 E8.5356
G1 X73.55 Y78.145 E8.61964
G1 X76.055 Y77.804 E8.70372
G1 X78.528 Y77.396 E8.78708
G1 X81.027 Y76.911 E8.87175
G1 X83.515 Y76.354 E8.95655
G1 X85.945 Y75.74 E9.03991
G1 X88.383 Y75.047 E9.12421
G1 X90.793 Y74.289 E9.20824
G1 X93.194 Y73.457 E9.29276
G1 X95.519 Y72.578 E9.37543
G1 X98.259 Y71.446 E9.47403
G1 X99.442 Y70.935 E9.5169
G1 X99.929 Y70.736 E9.53439
G1 X100.168 Y70.643 E9.54292
G1 X100.555 Y70.498 E9.55667
G1 X100.818 Y70.403 E9.56597
G1 X101.079 Y70.313 E9.57515
G1 X101.962 Y70.051 E9.60579
G1 X102.821 Y69.873 E9.63496
G1 X104.003 Y69.681 E9.67479
G1 X104.35 Y69.63 E9.68646
G1 X106.818 Y69.194 E9.76981
G1 X107.698 Y69.016 E9.79968
G1 X108.303 Y68.904 E9.82014
G1 X109.215 Y68.776 E9.85077
G1 X109.915 Y68.732 E9.8741
G1 X110.148 Y68.725 E9.88185
G1 X110.584 Y68.721 E9.89635
G1 X111.239 Y68.73 E9.91814
G1 X111.469 Y68.737 E9.92579
G1 X111.784 Y68.751 E9.93628
G1 X112.116 Y68.771 E9.94734
G1 X113.032 Y68.866 E9.97797
G1 X113.851 Y69.021 E10.0057
G1 X114.986 Y69.283 E10.04444
G1 X115.73 Y69.467 E10.06993
G1 X118.211 Y70.006 E10.15438
G1 X118.839 Y70.128 E10.17565
G1 X119.267 Y70.217 E10.19019
G1 X120.135 Y70.436 E10.21997
G1 X120.182 Y70.45 E10.2216
G1 X121.087 Y70.765 E10.25347
G1 X121.579 Y70.964 E10.27112
G1 X121.885 Y71.094 E10.28218
G1 X122.142 Y71.207 E10.29152
G1 X122.372 Y71.312 E10.29993
G1 X122.613 Y71.426 E10.30879
G1 X122.927 Y71.579 E10.32041
G1 X123.736 Y72.018 E10.35103
G1 X124.456 Y72.49 E10.37966
G1 X125.383 Y73.155 E10.4176
G1 X126.015 Y73.621 E10.44372
G1 X128.108 Y75.071 E10.52841
G1 X128.679 Y75.449 E10.55118
G1 X129.023 Y75.685 E10.56506
G1 X129.947 Y76.397 E10.60386
G1 X130.426 Y76.833 E10.6254
G1 X130.58 Y76.982 E10.63253
G1 X130.779 Y77.181 E10.64189
G1 X131.074 Y77.482 E10.65591
G1 X131.403 Y77.829 E10.67181
G1 X131.603 Y78.048 E10.68167
G1 X131.819 Y78.292 E10.69251
G1 X132.523 Y79.178 E10.73015
G1 X132.898 Y79.741 E10.75265
G1 X133.548 Y80.787 E10.79361
G1 X133.867 Y81.316 E10.81416
G1 X135.21 Y83.407 E10.89681
G1 X135.57 Y83.941 E10.91823
G1 X135.887 Y84.428 E10.93756
G1 X136.355 Y85.221 E10.96819
G1 X136.735 Y86.01 E10.99731
G1 X136.896 Y86.383 E11.01083
G1 X137.048 Y86.752 E11.0241
G1 X137.147 Y87.006 E11.03317
G1 X137.28 Y87.361 E11.04577
G1 X137.379 Y87.637 E11.05553
G1 X137.481 Y87.934 E11.06597
G1 X137.742 Y88.817 E11.0966
G1 X137.913 Y89.641 E11.12459
G1 X138.098 Y90.76 E11.16231
G1 X138.211 Y91.504 E11.18734
G1 X138.661 Y93.996 E11.27156
G1 X138.796 Y94.661 E11.29413
G1 X138.882 Y95.119 E11.30963
G1 X139.012 Y96.03 E11.34024
G1 X139.062 Y96.865 E11.36806
G1 X139.068 Y97.168 E11.37814
G1 X139.069 Y97.481 E11.38855
G1 X139.061 Y98.045 E11.40731
G1 X139.05 Y98.37 E11.41813
G1 X139.037 Y98.653 E11.42755
G1 X139.018 Y98.966 E11.43798
G1 X138.922 Y99.882 E11.46861
G1 X138.757 Y100.745 E11.49784
G1 X138.458 Y102.016 E11.54126
G1 X138.36 Y102.407 E11.55467
G1 X137.816 Y104.888 E11.63915
G1 X137.676 Y105.606 E11.66348
G1 X137.556 Y106.172 E11.68272
G1 X137.326 Y107.064 E11.71336
G1 X137.123 Y107.665 E11.73446
G1 X137.071 Y107.805 E11.73943
G1 X136.888 Y108.264 E11.75586
G1 X136.631 Y108.868 E11.7777
G1 X136.432 Y109.306 E11.7937
G1 X136.238 Y109.71 E11.8086
G1 X135.804 Y110.522 E11.83923
G1 X135.309 Y111.283 E11.86942
G1 X134.706 Y112.125 E11.90387
G1 X134.14 Y112.896 E11.93568
G1 X132.671 Y115.02 E12.02157
G1 X132.341 Y115.517 E12.04141
G1 X132.105 Y115.861 E12.05529
G1 X131.551 Y116.596 E12.0859
G1 X131.194 Y117.009 E12.10406
G1 X131.121 Y117.089 E12.10766
G1 X130.707 Y117.518 E12.12749
G1 X130.181 Y118.033 E12.15198
G1 X129.809 Y118.38 E12.1689
G1 X129.502 Y118.653 E12.18256
G1 X128.788 Y119.234 E12.21318
G1 X128.088 Y119.714 E12.24141
G1 X127.528 Y120.065 E12.26339
G1 X126.361 Y120.773 E12.30879
G1 X124.182 Y122.181 E12.39507
G1 X123.896 Y122.375 E12.40657
G1 X123.323 Y122.748 E12.42931
G1 X122.53 Y123.215 E12.45992
G1 X121.761 Y123.583 E12.48827
G1 X121.266 Y123.794 E12.50617
G1 X121.017 Y123.895 E12.51511
G1 X120.752 Y123.998 E12.52456
G1 X120.429 Y124.119 E12.53604
G1 X120.153 Y124.218 E12.54579
G1 X119.856 Y124.32 E12.55623
G1 X118.973 Y124.581 E12.58686
G1 X118.152 Y124.751 E12.61474
G1 X117.087 Y124.927 E12.65065
G1 X116.34 Y125.04 E12.67577
G1 X113.873 Y125.484 E12.75914
G1 X113.272 Y125.607 E12.77955
G1 X112.646 Y125.724 E12.80073
G1 X111.734 Y125.852 E12.83136
G1 X111.036 Y125.896 E12.85462
G1 X110.802 Y125.903 E12.86241
G1 X110.367 Y125.907 E12.87688
G1 X109.71 Y125.898 E12.89873
G1 X109.481 Y125.891 E12.90635
G1 X109.171 Y125.877 E12.91667
G1 X108.837 Y125.857 E12.9278
G1 X107.922 Y125.762 E12.9584
G1 X107.086 Y125.604 E12.9867
G1 X105.967 Y125.345 E13.0249
G1 X105.218 Y125.16 E13.05056
G1 X102.727 Y124.62 E13.13533
G1 X102.112 Y124.5 E13.15617
G1 X101.684 Y124.411 E13.17071
G1 X100.816 Y124.192 E13.20049
G1 X100.769 Y124.178 E13.20212
G1 X99.864 Y123.863 E13.23399
G1 X99.364 Y123.661 E13.25193
G1 X99.054 Y123.529 E13.26313
G1 X98.59 Y123.32 E13.28006
G1 X98.381 Y123.222 E13.28774
G1 X97.229 Y122.665 E13.3303
G1 X94.901 Y121.577 E13.41577
G1 X92.568 Y120.567 E13.50032
G1 X90.193 Y119.616 E13.58541
G1 X87.852 Y118.756 E13.66836
G1 X85.435 Y117.945 E13.75315
G1 X83.051 Y117.218 E13.83605
G1 X80.561 Y116.536 E13.92192
G1 X78.131 Y115.944 E14.00511
G1 X75.645 Y115.413 E14.08966
G1 X73.178 Y114.958 E14.17309
G1 X70.662 Y114.567 E14.25778
G1 X68.157 Y114.25 E14.34176
G1 X65.638 Y114.003 E14.42594
G1 X64.733 Y113.937 E14.45612
G1 X64.089 Y113.882 E14.47762
G1 X63.833 Y113.857 E14.48618
G1 X63.205 Y113.788 E14.50719
G1 X62.3 Y113.648 E14.53765
G1 X62.053 Y113.599 E14.54602
G1 X61.615 Y113.503 E14.56094
G1 X60.989 Y113.351 E14.58236
G1 X60.149 Y113.11 E14.61143
G1 X59.875 Y113.019 E14.62103
G1 X59.396 Y112.847 E14.63796
G1 X58.811 Y112.621 E14.65882
G1 X57.988 Y112.262 E14.68868
G1 X57.791 Y112.166 E14.69597
G1 X57.379 Y111.954 E14.71138
G1 X56.769 Y111.623 E14.73447
