;FLAVOR:Marlin
;TIME:1678
;Filament used: 1.29088m
;Layer height: 0.2
;MINX:53.712
;MINY:82.667
;MINZ:0.2
;MAXX:145.495
;MAXY:140.297
;MAXZ:4.6
;Generated with Cura_SteamEngine 4.12.1
M140 S50
M105
M190 S50
M104 S200
M105
M109 S200
M82 ;absolute extrusion mode
M201 X500.00 Y500.00 Z100.00 E5000.00 ;Setup machine max acceleration
M203 X500.00 Y500.00 Z10.00 E50.00 ;Setup machine max feedrate
M204 P500.00 R1000.00 T500.00 ;Setup Print/Retract/Travel acceleration
M205 X8.00 Y8.00 Z0.40 E5.00 ;Setup Jerk
M220 S100 ;Reset Feedrate
M221 S100 ;Reset Flowrate

G28 ;Home

G92 E0 ;Reset Extruder
G1 Z2.0 F3000 ;Move Z Axis up
G1 X10.1 Y20 Z0.28 F5000.0 ;Move to start position
G1 X10.1 Y200.0 Z0.28 F1500.0 E15 ;Draw the first line
G1 X10.4 Y200.0 Z0.28 F5000.0 ;Move to side a little
G1 X10.4 Y20 Z0.28 F1500.0 E30 ;Draw the second line
G92 E0 ;Reset Extruder
G1 Z2.0 F3000 ;Move Z Axis up

G92 E0
G92 E0
G1 F2700 E-5
;LAYER_COUNT:23
;LAYER:0
M107
G0 F6000 X65.366 Y88.113 Z0.2
;TYPE:SKIRT
G1 F2700 E0
G1 F1200 X65.774 Y87.817 E0.01677
G1 X66.029 Y87.638 E0.02713
G1 X66.377 Y87.403 E0.04109
G1 X66.657 Y87.22 E0.05222
G1 X67.463 Y86.741 E0.0834
G1 X68.314 Y86.329 E0.11485
G1 X69.201 Y85.946 E0.14699
G1 X70.108 Y85.569 E0.17965
G1 X72.45 Y84.517 E0.26505
G1 X72.849 Y84.326 E0.27976
G1 X73.067 Y84.225 E0.28775
G1 X73.457 Y84.049 E0.30198
G1 X74.328 Y83.7 E0.33319
G1 X75.192 Y83.435 E0.36325
G1 X75.562 Y83.338 E0.37597
G1 X76.019 Y83.228 E0.39161
G1 X76.664 Y83.088 E0.41356
G1 X77.098 Y83.003 E0.42827
G1 X77.292 Y82.969 E0.43482
G1 X78.222 Y82.847 E0.46601
G1 X79.055 Y82.805 E0.49376
G1 X80.427 Y82.789 E0.53939
G1 X80.772 Y82.79 E0.55087
G1 X83.285 Y82.723 E0.63448
G1 X83.892 Y82.692 E0.65469
G1 X84.598 Y82.667 E0.67819
G1 X85.535 Y82.674 E0.70936
G1 X86.293 Y82.739 E0.73466
G1 X86.492 Y82.763 E0.74133
G1 X86.936 Y82.826 E0.75624
G1 X87.497 Y82.917 E0.77514
G1 X87.821 Y82.974 E0.78609
G1 X88.158 Y83.041 E0.79751
G1 X88.542 Y83.124 E0.81058
G1 X89.449 Y83.361 E0.84176
G1 X90.298 Y83.661 E0.87171
G1 X91.39 Y84.098 E0.91083
G1 X91.887 Y84.304 E0.92872
G1 X94.303 Y85.229 E1.01477
G1 X94.972 Y85.467 E1.03839
G1 X95.953 Y85.835 E1.07323
G1 X97.736 Y86.532 E1.13691
G1 X100.11 Y87.384 E1.2208
G1 X102.503 Y88.167 E1.30454
G1 X104.884 Y88.872 E1.38713
G1 X107.368 Y89.532 E1.47262
G1 X109.803 Y90.106 E1.55583
G1 X112.271 Y90.612 E1.63962
G1 X114.71 Y91.043 E1.722
G1 X117.247 Y91.417 E1.80729
G1 X119.708 Y91.709 E1.88972
G1 X122.258 Y91.939 E1.97488
G1 X124.729 Y92.091 E2.05722
G1 X127.171 Y92.162 E2.13847
G1 X128 Y92.19 E2.16606
G1 X128.251 Y92.202 E2.17442
G1 X128.887 Y92.238 E2.19561
G1 X129.838 Y92.333 E2.22739
G1 X130.108 Y92.372 E2.23647
G1 X130.587 Y92.452 E2.25262
G1 X131.219 Y92.572 E2.27402
G1 X132.175 Y92.798 E2.30669
G1 X132.474 Y92.883 E2.31703
G1 X132.905 Y93.015 E2.33202
G1 X133.458 Y93.197 E2.35138
G1 X134.338 Y93.53 E2.38268
G1 X134.605 Y93.644 E2.39233
G1 X135.05 Y93.845 E2.40857
G1 X135.614 Y94.116 E2.42939
G1 X136.413 Y94.541 E2.45949
G1 X136.645 Y94.677 E2.46843
G1 X137.1 Y94.959 E2.48623
G1 X137.657 Y95.323 E2.50837
G1 X138.449 Y95.892 E2.5408
G1 X138.671 Y96.067 E2.5502
G1 X139.027 Y96.361 E2.56556
G1 X139.487 Y96.756 E2.58573
G1 X140.14 Y97.363 E2.61538
G1 X140.331 Y97.556 E2.62441
G1 X140.693 Y97.941 E2.64199
G1 X141.119 Y98.415 E2.66318
G1 X141.725 Y99.15 E2.69487
G1 X141.905 Y99.389 E2.70482
G1 X142.185 Y99.779 E2.72079
G1 X142.525 Y100.274 E2.74076
G1 X143.006 Y101.041 E2.77087
G1 X143.157 Y101.305 E2.78099
G1 X143.415 Y101.782 E2.79903
G1 X143.693 Y102.329 E2.81943
G1 X144.066 Y103.142 E2.84918
G1 X144.175 Y103.408 E2.85874
G1 X144.368 Y103.916 E2.87682
G1 X144.582 Y104.522 E2.89819
G1 X144.858 Y105.424 E2.92957
G1 X144.928 Y105.694 E2.93885
G1 X145.037 Y106.154 E2.95457
G1 X145.166 Y106.757 E2.97508
G1 X145.322 Y107.674 E3.00602
G1 X145.356 Y107.942 E3.015
G1 X145.408 Y108.443 E3.03175
G1 X145.46 Y109.089 E3.05331
G1 X145.495 Y110.013 E3.08406
G1 X145.494 Y110.279 E3.09291
G1 X145.48 Y110.791 E3.10995
G1 X145.448 Y111.427 E3.13113
G1 X145.361 Y112.36 E3.16229
G1 X145.322 Y112.646 E3.17189
G1 X145.241 Y113.151 E3.18891
G1 X145.128 Y113.765 E3.20967
G1 X144.922 Y114.671 E3.24057
G1 X144.839 Y114.975 E3.25105
G1 X144.7 Y115.443 E3.26729
G1 X144.522 Y115.997 E3.28665
G1 X144.194 Y116.883 E3.31807
G1 X144.075 Y117.167 E3.32831
G1 X143.887 Y117.592 E3.34377
G1 X143.624 Y118.152 E3.36434
G1 X143.169 Y119.019 E3.39691
G1 X143.029 Y119.259 E3.40615
G1 X142.776 Y119.671 E3.42223
G1 X142.438 Y120.196 E3.443
G1 X141.909 Y120.946 E3.47353
G1 X141.736 Y121.171 E3.48297
G1 X141.431 Y121.55 E3.49915
G1 X141.032 Y122.024 E3.51975
G1 X140.378 Y122.736 E3.55191
G1 X140.155 Y122.958 E3.56237
G1 X139.813 Y123.283 E3.57807
G1 X139.385 Y123.674 E3.59735
G1 X138.729 Y124.228 E3.62591
G1 X138.543 Y124.373 E3.63375
G1 X138.209 Y124.624 E3.64765
G1 X137.982 Y124.786 E3.65692
G1 X137.462 Y125.147 E3.67798
G1 X136.664 Y125.652 E3.70939
G1 X136.427 Y125.788 E3.71847
G1 X135.999 Y126.021 E3.73468
G1 X135.451 Y126.304 E3.7552
G1 X134.63 Y126.686 E3.78531
G1 X134.356 Y126.8 E3.79518
G1 X133.895 Y126.98 E3.81164
G1 X133.313 Y127.192 E3.83225
G1 X132.335 Y127.497 E3.86632
G1 X132.041 Y127.574 E3.87643
G1 X131.638 Y127.671 E3.89021
G1 X131.066 Y127.798 E3.9097
G1 X130.152 Y127.961 E3.94058
G1 X129.848 Y128.002 E3.95078
G1 X129.335 Y128.059 E3.96795
G1 X127.63 Y128.208 E4.02488
G1 X125.029 Y128.471 E4.11183
G1 X122.523 Y128.797 E4.19588
G1 X120.047 Y129.191 E4.27927
G1 X117.602 Y129.651 E4.36202
G1 X115.125 Y130.19 E4.44633
G1 X112.683 Y130.793 E4.52999
G1 X110.23 Y131.474 E4.61466
G1 X107.834 Y132.212 E4.69805
G1 X105.471 Y133.014 E4.78105
G1 X103.101 Y133.894 E4.86513
G1 X100.764 Y134.837 E4.94895
G1 X97.754 Y136.169 E5.05843
G1 X97.004 Y136.516 E5.08591
G1 X96.726 Y136.639 E5.09602
G1 X95.572 Y137.135 E5.1378
G1 X94.999 Y137.373 E5.15844
G1 X92.643 Y138.429 E5.24431
G1 X92.23 Y138.626 E5.25953
G1 X91.599 Y138.913 E5.28258
G1 X90.728 Y139.263 E5.3138
G1 X89.856 Y139.53 E5.34414
G1 X89.489 Y139.626 E5.35675
G1 X89.044 Y139.732 E5.37197
G1 X88.396 Y139.873 E5.39403
G1 X87.919 Y139.966 E5.41019
G1 X87.721 Y140 E5.41687
G1 X86.79 Y140.119 E5.44809
G1 X85.995 Y140.158 E5.47456
G1 X84.627 Y140.174 E5.52007
G1 X84.282 Y140.173 E5.53154
G1 X81.769 Y140.24 E5.61515
G1 X80.979 Y140.279 E5.64146
G1 X80.455 Y140.297 E5.6589
G1 X79.517 Y140.289 E5.6901
G1 X78.753 Y140.223 E5.7156
G1 X78.555 Y140.199 E5.72224
G1 X78.118 Y140.137 E5.73692
G1 X77.557 Y140.046 E5.75582
G1 X77.233 Y139.989 E5.76676
G1 X76.896 Y139.922 E5.77819
G1 X76.512 Y139.839 E5.79126
G1 X75.605 Y139.602 E5.82244
G1 X74.76 Y139.304 E5.85224
G1 X73.633 Y138.853 E5.89261
G1 X73.133 Y138.646 E5.91061
G1 X70.74 Y137.731 E5.99582
G1 X70.049 Y137.484 E6.02023
G1 X69.567 Y137.303 E6.03735
G1 X68.704 Y136.936 E6.06854
G1 X67.874 Y136.496 E6.09979
G1 X67.536 Y136.298 E6.11282
G1 X67.134 Y136.053 E6.12848
G1 X66.728 Y135.794 E6.14449
G1 X66.476 Y135.627 E6.15455
G1 X66.168 Y135.416 E6.16697
G1 X65.418 Y134.853 E6.19816
G1 X64.725 Y134.236 E6.22902
G1 X64.016 Y133.546 E6.26192
G1 X63.302 Y132.834 E6.29546
G1 X61.453 Y131.092 E6.37995
G1 X60.981 Y130.666 E6.4011
G1 X60.683 Y130.388 E6.41466
G1 X60.026 Y129.72 E6.44582
G1 X59.421 Y128.99 E6.47735
G1 X59.208 Y128.709 E6.48908
G1 X58.946 Y128.351 E6.50384
G1 X58.792 Y128.132 E6.51274
G1 X58.545 Y127.772 E6.52726
G1 X58.381 Y127.526 E6.5371
G1 X58.236 Y127.302 E6.54597
G1 X57.76 Y126.494 E6.57716
G1 X57.363 Y125.667 E6.60767
G1 X56.833 Y124.431 E6.6524
G1 X56.637 Y123.959 E6.6694
G1 X55.58 Y121.601 E6.75535
G1 X55.344 Y121.101 E6.77374
G1 X55.114 Y120.597 E6.79216
G1 X54.761 Y119.728 E6.82336
G1 X54.482 Y118.826 E6.85476
G1 X54.4 Y118.514 E6.86549
G1 X54.332 Y118.241 E6.87485
G1 X54.258 Y117.927 E6.88558
G1 X54.146 Y117.41 E6.90317
G1 X54.087 Y117.115 E6.91318
G1 X54.03 Y116.805 E6.92366
G1 X53.9 Y115.876 E6.95486
G1 X53.85 Y114.975 E6.98488
G1 X53.835 Y113.834 E7.02283
G1 X53.836 Y113.176 E7.04471
G1 X53.764 Y110.612 E7.13003
G1 X53.731 Y109.954 E7.15194
G1 X53.712 Y109.377 E7.17114
G1 X53.721 Y108.439 E7.20234
G1 X53.807 Y107.525 E7.23287
G1 X53.845 Y107.247 E7.24221
G1 X53.885 Y106.983 E7.25109
G1 X53.953 Y106.562 E7.26527
G1 X54.001 Y106.284 E7.27465
G1 X54.081 Y105.876 E7.28848
G1 X54.16 Y105.505 E7.3011
G1 X54.394 Y104.597 E7.33229
G1 X54.688 Y103.756 E7.36192
G1 X55.043 Y102.859 E7.394
G1 X55.445 Y101.886 E7.42902
G1 X56.347 Y99.509 E7.51358
G1 X56.513 Y99.04 E7.53013
G1 X56.599 Y98.805 E7.53845
G1 X56.72 Y98.486 E7.5498
G1 X57.09 Y97.624 E7.581
G1 X57.484 Y96.877 E7.60909
G1 X57.62 Y96.642 E7.61812
G1 X57.784 Y96.369 E7.62871
G1 X57.962 Y96.081 E7.63997
G1 X58.09 Y95.879 E7.64792
G1 X58.28 Y95.586 E7.65954
G1 X58.476 Y95.294 E7.67124
G1 X58.64 Y95.058 E7.6808
G1 X59.207 Y94.311 E7.71199
G1 X59.784 Y93.669 E7.7407
G1 X60.402 Y93.033 E7.77019
G1 X60.925 Y92.512 E7.79475
G1 X62.668 Y90.675 E7.87897
G1 X63.06 Y90.24 E7.89845
G1 X63.217 Y90.069 E7.90617
G1 X63.653 Y89.605 E7.92734
G1 X64.324 Y88.95 E7.95853
G1 X64.954 Y88.425 E7.98581
G1 X65.111 Y88.304 E7.9924
G1 X65.366 Y88.113 E8.003
G0 F6000 X65.601 Y88.437
G1 F1200 X66.009 Y88.141 E8.01976
G1 X66.254 Y87.969 E8.02972
G1 X66.596 Y87.738 E8.04345
G1 X66.876 Y87.555 E8.05457
G1 X67.668 Y87.085 E8.0852
G1 X68.473 Y86.696 E8.11494
G1 X69.493 Y86.257 E8.15187
G1 X70.289 Y85.926 E8.18055
G1 X72.624 Y84.877 E8.26569
G1 X73.232 Y84.589 E8.28806
G1 X73.622 Y84.413 E8.30229
G1 X74.477 Y84.071 E8.33292
G1 X75.294 Y83.822 E8.36133
G1 X75.664 Y83.725 E8.37405
G1 X76.104 Y83.619 E8.3891
G1 X76.749 Y83.479 E8.41106
G1 X77.167 Y83.397 E8.42522
G1 X77.361 Y83.363 E8.43177
G1 X78.274 Y83.244 E8.4624
G1 X79.06 Y83.205 E8.48857
G1 X80.426 Y83.189 E8.53401
G1 X80.782 Y83.19 E8.54585
G1 X83.314 Y83.123 E8.63009
G1 X84.088 Y83.084 E8.65587
G1 X84.611 Y83.066 E8.67327
G1 X85.532 Y83.075 E8.70391
G1 X86.245 Y83.136 E8.72771
G1 X86.444 Y83.16 E8.73438
G1 X86.872 Y83.221 E8.74876
G1 X87.651 Y83.349 E8.77501
G1 X88.073 Y83.432 E8.78932
G1 X88.457 Y83.515 E8.80238
G1 X89.348 Y83.749 E8.83302
G1 X90.149 Y84.032 E8.86128
G1 X91.237 Y84.467 E8.90025
G1 X91.771 Y84.688 E8.91947
G1 X94.141 Y85.595 E9.00388
G1 X94.832 Y85.841 E9.02827
G1 X95.661 Y86.151 E9.05771
G1 X97.604 Y86.91 E9.12709
G1 X99.955 Y87.754 E9.21017
G1 X102.38 Y88.548 E9.29504
G1 X104.806 Y89.266 E9.37919
G1 X107.245 Y89.913 E9.46311
G1 X109.729 Y90.499 E9.548
G1 X112.199 Y91.006 E9.63187
G1 X114.648 Y91.438 E9.71458
G1 X117.178 Y91.811 E9.79964
G1 X119.696 Y92.11 E9.88397
G1 X122.196 Y92.336 E9.96746
G1 X124.693 Y92.49 E10.05067
G1 X127.158 Y92.562 E10.13269
G1 X127.987 Y92.59 E10.16028
G1 X128.228 Y92.601 E10.1683
G1 X128.864 Y92.637 E10.18949
G1 X129.78 Y92.729 E10.22011
G1 X130.05 Y92.768 E10.22918
G1 X130.512 Y92.845 E10.24476
G1 X131.144 Y92.965 E10.26616
G1 X132.066 Y93.183 E10.29767
G1 X132.365 Y93.268 E10.30801
G1 X132.78 Y93.395 E10.32244
G1 X133.333 Y93.577 E10.34181
G1 X134.181 Y93.897 E10.37195
G1 X134.448 Y94.011 E10.38161
G1 X134.877 Y94.206 E10.39728
G1 X135.441 Y94.477 E10.41809
G1 X136.211 Y94.886 E10.44709
G1 X136.443 Y95.022 E10.45604
G1 X136.881 Y95.294 E10.47319
G1 X137.438 Y95.658 E10.49532
G1 X138.201 Y96.206 E10.52656
G1 X138.423 Y96.381 E10.53596
G1 X138.767 Y96.664 E10.55078
G1 X139.227 Y97.059 E10.57095
G1 X139.855 Y97.645 E10.59951
G1 X140.046 Y97.838 E10.60855
G1 X140.396 Y98.208 E10.62548
G1 X140.822 Y98.682 E10.64668
G1 X141.405 Y99.391 E10.67721
G1 X141.585 Y99.63 E10.68716
G1 X141.855 Y100.006 E10.70256
G1 X142.195 Y100.501 E10.72253
G1 X142.659 Y101.239 E10.75153
G1 X142.81 Y101.503 E10.76164
G1 X143.059 Y101.963 E10.77904
G1 X143.337 Y102.51 E10.79945
G1 X143.695 Y103.294 E10.82811
G1 X143.804 Y103.56 E10.83768
G1 X143.991 Y104.049 E10.85509
G1 X144.205 Y104.655 E10.87646
G1 X144.471 Y105.525 E10.90672
G1 X144.541 Y105.795 E10.916
G1 X144.645 Y106.238 E10.93113
G1 X144.774 Y106.841 E10.95164
G1 X144.925 Y107.724 E10.98144
G1 X144.959 Y107.992 E10.99042
G1 X145.009 Y108.476 E11.00661
G1 X145.061 Y109.122 E11.02816
G1 X145.095 Y110.012 E11.05779
G1 X145.094 Y110.278 E11.06663
G1 X145.081 Y110.771 E11.08304
G1 X145.049 Y111.407 E11.10422
G1 X144.965 Y112.306 E11.13425
G1 X144.926 Y112.592 E11.14385
G1 X144.848 Y113.079 E11.16025
G1 X144.735 Y113.693 E11.18102
G1 X144.536 Y114.566 E11.2108
G1 X144.453 Y114.87 E11.22128
G1 X144.319 Y115.321 E11.23693
G1 X144.141 Y115.875 E11.25628
G1 X143.825 Y116.728 E11.28654
G1 X143.706 Y117.012 E11.29678
G1 X143.525 Y117.422 E11.31168
G1 X143.262 Y117.982 E11.33226
G1 X142.823 Y118.817 E11.36364
G1 X142.683 Y119.057 E11.37288
G1 X142.44 Y119.454 E11.38836
G1 X142.102 Y119.979 E11.40913
G1 X141.592 Y120.702 E11.43856
G1 X141.419 Y120.927 E11.448
G1 X141.125 Y121.292 E11.46358
G1 X140.726 Y121.766 E11.48419
G1 X140.095 Y122.452 E11.51519
G1 X139.872 Y122.674 E11.52566
G1 X139.543 Y122.988 E11.54078
G1 X139.115 Y123.379 E11.56007
G1 X138.483 Y123.913 E11.58759
G1 X138.297 Y124.058 E11.59543
G1 X137.972 Y124.302 E11.60895
G1 X137.754 Y124.457 E11.61784
G1 X137.234 Y124.818 E11.6389
G1 X136.465 Y125.305 E11.66917
G1 X136.228 Y125.441 E11.67826
G1 X135.816 Y125.665 E11.69386
G1 X135.268 Y125.948 E11.71437
G1 X134.476 Y126.317 E11.74343
G1 X134.202 Y126.431 E11.7533
G1 X133.758 Y126.604 E11.76915
G1 X133.176 Y126.816 E11.78975
G1 X132.234 Y127.11 E11.82257
G1 X131.94 Y127.187 E11.83268
G1 X131.552 Y127.281 E11.84596
G1 X130.98 Y127.408 E11.86545
G1 X130.099 Y127.565 E11.89521
G1 X129.795 Y127.606 E11.90542
G1 X129.3 Y127.661 E11.92198
G1 X127.558 Y127.813 E11.98014
G1 X124.974 Y128.075 E12.06653
G1 X122.475 Y128.4 E12.15034
G1 X119.982 Y128.797 E12.2343
G1 X117.515 Y129.26 E12.31779
G1 X115.05 Y129.797 E12.4017
G1 X112.553 Y130.413 E12.48724
G1 X110.143 Y131.082 E12.57043
G1 X107.725 Y131.827 E12.65458
G1 X105.32 Y132.643 E12.73905
G1 X102.948 Y133.524 E12.82321
G1 X100.607 Y134.469 E12.90718
G1 X97.58 Y135.808 E13.01726
G1 X96.835 Y136.153 E13.04457
G1 X96.568 Y136.272 E13.05429
G1 X95.419 Y136.766 E13.09589
G1 X94.818 Y137.016 E13.11754
G1 X92.486 Y138.061 E13.20254
G1 X92.058 Y138.265 E13.21831
G1 X91.434 Y138.549 E13.24111
G1 X90.579 Y138.891 E13.27174
G1 X89.754 Y139.143 E13.30043
G1 X89.387 Y139.239 E13.31305
G1 X88.959 Y139.342 E13.32769
G1 X88.311 Y139.483 E13.34974
G1 X87.851 Y139.572 E13.36533
G1 X87.653 Y139.606 E13.37201
G1 X86.74 Y139.722 E13.40262
G1 X85.99 Y139.758 E13.42759
G1 X84.628 Y139.774 E13.4729
G1 X84.272 Y139.773 E13.48474
G1 X81.74 Y139.84 E13.56898
G1 X80.965 Y139.879 E13.59479
G1 X80.441 Y139.897 E13.61223
G1 X79.52 Y139.888 E13.64286
G1 X78.801 Y139.826 E13.66687
G1 X78.603 Y139.802 E13.6735
G1 X78.182 Y139.742 E13.68764
G1 X77.403 Y139.614 E13.7139
G1 X76.981 Y139.531 E13.72821
G1 X76.597 Y139.448 E13.74127
G1 X75.706 Y139.214 E13.77191
G1 X74.908 Y138.932 E13.80006
G1 X73.786 Y138.484 E13.84025
G1 X73.25 Y138.262 E13.85954
G1 X70.889 Y137.359 E13.94362
G1 X70.375 Y137.177 E13.96175
G1 X69.708 Y136.928 E13.98543
G1 X68.861 Y136.568 E14.01604
G1 X68.076 Y136.151 E14.04561
G1 X67.738 Y135.953 E14.05864
G1 X67.344 Y135.713 E14.07398
G1 X66.945 Y135.458 E14.08973
G1 X66.702 Y135.297 E14.09942
G1 X66.394 Y135.086 E14.11184
G1 X65.658 Y134.533 E14.14246
G1 X65.004 Y133.949 E14.17162
G1 X64.298 Y133.263 E14.20436
G1 X63.575 Y132.543 E14.2383
G1 X61.733 Y130.808 E14.32246
G1 X61.254 Y130.374 E14.34396
G1 X60.956 Y130.096 E14.35752
G1 X60.311 Y129.439 E14.38814
G1 X59.74 Y128.748 E14.41795
G1 X59.382 Y128.272 E14.43776
G1 X59.121 Y127.906 E14.45272
G1 X58.874 Y127.546 E14.46724
G1 X58.717 Y127.309 E14.47669
G1 X58.572 Y127.085 E14.48557
